;START_OF_HEADER
;HEADER_VERSION:0.1
;FLAVOR:Griffin
;GENERATOR.NAME:Cura_SteamEngine
;GENERATOR.VERSION:5.6.0
;GENERATOR.BUILD_DATE:2023-11-28
;TARGET_MACHINE.NAME:Ultimaker S5
;EXTRUDER_TRAIN.0.INITIAL_TEMPERATURE:240
;EXTRUDER_TRAIN.0.MATERIAL.VOLUME_USED:835
;EXTRUDER_TRAIN.0.MATERIAL.GUID:1cbfaeb3-1906-4b26-b2e7-6f777a8c197a
;EXTRUDER_TRAIN.0.NOZZLE.DIAMETER:0.4
;EXTRUDER_TRAIN.0.NOZZLE.NAME:AA 0.4
;BUILD_PLATE.INITIAL_TEMPERATURE:85
;BUILD_VOLUME.TEMPERATURE:37
;PRINT.TIME:339
;PRINT.GROUPS:1
;PRINT.SIZE.MIN.X:145.698
;PRINT.SIZE.MIN.Y:106.026
;PRINT.SIZE.MIN.Z:0.3
;PRINT.SIZE.MAX.X:188.043
;PRINT.SIZE.MAX.Y:135.129
;PRINT.SIZE.MAX.Z:6.9
;SLICE_UUID:5cb9d173-0e88-4fe0-8876-1d7b6d9758aa
;END_OF_HEADER
;Generated with Cura_SteamEngine 5.6.0
T0
M82 ;absolute extrusion mode

G92 E0
M190 S85
M109 S240
G280 S1
G0 Z20.001
G1 F2700 E-8
;LAYER_COUNT:23
;LAYER:0
M106 S51
M204 S1000
M205 X20 Y20
G0 F9000 X185.7 Y131.09 Z0.3
;TYPE:SKIRT
G1 F900 E0
G1 F1800 X183.503 Y133.077 E0.05572
G1 X180.911 Y134.589 E0.11217
G1 X177.558 Y135.129 E0.17605
G1 X174.678 Y134.813 E0.23055
G1 X173.258 Y134.276 E0.25911
G1 X172.243 Y134.275 E0.2782
G1 X169.535 Y133.396 E0.33176
G1 X163.071 Y127.236 E0.49972
G1 X160.989 Y127.237 E0.53888
G1 X158.746 Y126.676 E0.58237
G1 X158.153 Y126.218 E0.59647
G1 X157.574 Y126.576 E0.60927
G1 X155.471 Y127.161 E0.65033
G1 X151.975 Y127.161 E0.7161
G1 X149.74 Y126.604 E0.75942
G1 X147.51 Y124.879 E0.81246
G1 X146.285 Y122.903 E0.85619
G1 X145.698 Y120.796 E0.89733
G1 X145.698 Y112.298 E1.05718
G1 X146.237 Y110.157 E1.09871
G1 X147.622 Y108.233 E1.14331
G1 X149.517 Y106.721 E1.18891
G1 X152.035 Y106.026 E1.23805
G1 X155.563 Y106.026 E1.30441
G1 X157.696 Y106.563 E1.34578
G1 X159.634 Y107.956 E1.39068
G1 X160.228 Y108.7 E1.40859
G1 X161.076 Y108.464 E1.42515
G1 X168.597 Y108.464 E1.56662
G1 X171.505 Y109.341 E1.62375
G1 X176.202 Y113.807 E1.74567
G1 X178.295 Y113.764 E1.78505
G1 X180.514 Y114.295 E1.82797
G1 X182.895 Y115.188 E1.8758
G1 X185.281 Y117.361 E1.93651
G1 X186.751 Y119.513 E1.98553
G1 X187.609 Y121.755 E2.03069
G1 X188.043 Y125.124 E2.09458
G1 X187.204 Y128.3 E2.15638
G1 X185.7 Y131.09 E2.216
G0 F9000 X185.381 Y130.839
G1 F1800 X183.268 Y132.75 E2.26959
G1 X180.772 Y134.206 E2.32394
G1 X177.549 Y134.725 E2.38535
G1 X174.769 Y134.42 E2.43796
G1 X173.33 Y133.876 E2.4669
G1 X172.306 Y133.875 E2.48616
G1 X169.746 Y133.044 E2.53679
G1 X163.231 Y126.836 E2.70607
G1 X161.038 Y126.837 E2.74732
G1 X158.924 Y126.308 E2.78831
G1 X158.178 Y125.732 E2.80604
G1 X157.412 Y126.206 E2.82298
G1 X155.418 Y126.761 E2.86192
G1 X152.024 Y126.761 E2.92576
G1 X149.918 Y126.236 E2.96659
G1 X147.812 Y124.607 E3.01667
G1 X146.654 Y122.739 E3.05801
G1 X146.098 Y120.743 E3.09699
G1 X146.098 Y112.348 E3.2549
G1 X146.606 Y110.33 E3.29405
G1 X147.915 Y108.512 E3.33619
G1 X149.703 Y107.085 E3.37922
G1 X152.09 Y106.426 E3.4258
G1 X155.513 Y106.426 E3.49019
G1 X157.524 Y106.932 E3.52919
G1 X159.357 Y108.25 E3.57166
G1 X160.081 Y109.156 E3.59348
G1 X161.129 Y108.864 E3.61394
G1 X168.538 Y108.864 E3.75331
G1 X171.297 Y109.696 E3.80751
G1 X176.045 Y114.21 E3.93075
G1 X178.252 Y114.165 E3.97227
G1 X180.374 Y114.67 E4.0133
G1 X182.683 Y115.536 E4.05969
G1 X184.977 Y117.625 E4.11805
G1 X186.393 Y119.698 E4.16528
G1 X187.218 Y121.854 E4.2087
G1 X187.636 Y125.098 E4.27023
G1 X186.829 Y128.153 E4.32966
G1 X185.381 Y130.839 E4.38706
G0 F9000 X185.062 Y130.588
G1 F1800 X183.033 Y132.423 E4.43852
G1 X180.633 Y133.823 E4.49079
G1 X177.54 Y134.321 E4.54972
G1 X174.86 Y134.027 E4.60043
G1 X173.402 Y133.476 E4.62975
G1 X172.369 Y133.475 E4.64918
G1 X169.957 Y132.692 E4.69688
G1 X163.391 Y126.436 E4.86748
G1 X161.087 Y126.437 E4.91082
G1 X159.104 Y125.941 E4.94927
G1 X158.203 Y125.245 E4.97069
G1 X157.248 Y125.837 E4.99182
G1 X155.365 Y126.361 E5.02859
G1 X152.073 Y126.361 E5.09051
G1 X150.096 Y125.868 E5.12884
G1 X148.114 Y124.335 E5.17597
G1 X147.023 Y122.575 E5.21492
G1 X146.498 Y120.69 E5.25173
G1 X146.498 Y112.398 E5.40771
G1 X146.975 Y110.503 E5.44447
G1 X148.209 Y108.789 E5.4842
G1 X149.887 Y107.45 E5.52458
G1 X152.146 Y106.826 E5.56866
G1 X155.463 Y106.826 E5.63106
G1 X157.353 Y107.302 E5.66772
G1 X159.077 Y108.541 E5.70765
G1 X159.933 Y109.613 E5.73346
G1 X161.183 Y109.264 E5.75787
G1 X168.479 Y109.264 E5.89511
G1 X171.089 Y110.051 E5.94639
G1 X175.888 Y114.613 E6.07094
G1 X178.21 Y114.566 E6.11463
G1 X180.234 Y115.045 E6.15375
G1 X182.471 Y115.884 E6.1987
G1 X184.673 Y117.889 E6.25471
G1 X186.035 Y119.883 E6.30014
G1 X186.827 Y121.953 E6.34183
G1 X187.229 Y125.072 E6.40098
G1 X186.454 Y128.006 E6.45807
G1 X185.062 Y130.588 E6.51324
G0 F9000 X184.743 Y130.337
G1 F1800 X182.798 Y132.096 E6.56257
G1 X180.494 Y133.44 E6.61275
G1 X177.531 Y133.917 E6.6692
G1 X174.951 Y133.634 E6.71802
G1 X173.474 Y133.076 E6.74772
G1 X172.432 Y133.075 E6.76732
G1 X170.168 Y132.34 E6.8121
G1 X163.551 Y126.036 E6.98401
G1 X161.136 Y126.037 E7.02944
G1 X159.282 Y125.573 E7.06539
G1 X158.228 Y124.759 E7.09044
G1 X157.084 Y125.468 E7.11576
G1 X155.312 Y125.961 E7.15036
G1 X152.122 Y125.961 E7.21036
G1 X150.274 Y125.5 E7.24619
G1 X148.416 Y124.063 E7.29037
G1 X147.392 Y122.411 E7.32693
G1 X146.898 Y120.637 E7.36157
G1 X146.898 Y112.448 E7.51561
G1 X147.344 Y110.676 E7.54998
G1 X148.503 Y109.066 E7.5873
G1 X150.072 Y107.814 E7.62506
G1 X152.201 Y107.226 E7.66661
G1 X155.413 Y107.226 E7.72703
G1 X157.181 Y107.671 E7.76132
G1 X158.798 Y108.834 E7.79879
G1 X159.785 Y110.07 E7.82854
G1 X161.237 Y109.664 E7.8569
G1 X168.42 Y109.664 E7.99202
G1 X170.881 Y110.406 E8.04037
G1 X175.731 Y115.016 E8.16624
G1 X178.169 Y114.967 E8.21211
G1 X180.094 Y115.42 E8.2493
G1 X182.259 Y116.232 E8.2928
G1 X184.369 Y118.153 E8.34648
G1 X185.677 Y120.068 E8.3901
G1 X186.436 Y122.052 E8.43006
G1 X186.822 Y125.046 E8.48684
G1 X186.079 Y127.859 E8.54157
G1 X184.743 Y130.337 E8.59453
G0 F9000 X184.424 Y130.086
G1 F1800 X182.563 Y131.769 E8.64172
G1 X180.355 Y133.057 E8.68981
G1 X177.522 Y133.513 E8.74378
G1 X175.042 Y133.241 E8.79071
G1 X173.546 Y132.676 E8.82079
G1 X172.495 Y132.675 E8.84056
G1 X170.379 Y131.988 E8.88241
G1 X163.711 Y125.636 E9.05564
G1 X161.185 Y125.637 E9.10316
G1 X159.462 Y125.206 E9.13657
G1 X158.254 Y124.273 E9.16528
G1 X156.92 Y125.099 E9.19479
G1 X155.259 Y125.561 E9.22722
G1 X152.171 Y125.561 E9.28531
G1 X150.452 Y125.132 E9.31864
G1 X148.718 Y123.791 E9.35987
G1 X147.761 Y122.247 E9.39404
G1 X147.298 Y120.584 E9.42651
G1 X147.298 Y112.498 E9.57862
G1 X147.713 Y110.849 E9.6106
G1 X148.797 Y109.343 E9.64551
G1 X150.256 Y108.179 E9.68061
G1 X152.257 Y107.626 E9.71967
G1 X155.363 Y107.626 E9.77809
G1 X157.01 Y108.041 E9.81004
G1 X158.52 Y109.126 E9.84502
G1 X159.637 Y110.526 E9.87871
G1 X161.291 Y110.064 E9.91101
G1 X168.361 Y110.064 E10.044
G1 X170.674 Y110.761 E10.08944
G1 X175.574 Y115.419 E10.21661
G1 X178.125 Y115.368 E10.26461
G1 X179.954 Y115.795 E10.29994
G1 X182.047 Y116.58 E10.34199
G1 X184.065 Y118.417 E10.39332
G1 X185.319 Y120.253 E10.43514
G1 X186.045 Y122.151 E10.47337
G1 X186.415 Y125.02 E10.52778
G1 X185.704 Y127.712 E10.58016
G1 X184.424 Y130.086 E10.63089
G0 F9000 X184.105 Y129.835
G1 F1800 X182.328 Y131.442 E10.67596
G1 X180.216 Y132.674 E10.72195
G1 X177.513 Y133.109 E10.77345
G1 X175.133 Y132.848 E10.81849
G1 X173.618 Y132.276 E10.84895
G1 X172.558 Y132.275 E10.86889
G1 X170.59 Y131.636 E10.90781
G1 X163.871 Y125.236 E11.08236
G1 X161.234 Y125.237 E11.13196
G1 X159.64 Y124.838 E11.16287
G1 X158.235 Y123.753 E11.19626
G1 X158.071 Y123.916 E11.20061
G1 X156.756 Y124.73 E11.2297
G1 X155.206 Y125.161 E11.25997
G1 X152.22 Y125.161 E11.31614
G1 X150.63 Y124.764 E11.34696
G1 X149.02 Y123.519 E11.38525
G1 X148.13 Y122.083 E11.41703
G1 X147.698 Y120.531 E11.44733
G1 X147.698 Y112.548 E11.59749
G1 X148.082 Y111.022 E11.62709
G1 X149.09 Y109.622 E11.65954
G1 X150.442 Y108.543 E11.69208
G1 X152.313 Y108.026 E11.7286
G1 X155.313 Y108.026 E11.78503
G1 X156.838 Y108.41 E11.81461
G1 X158.241 Y109.419 E11.84712
G1 X159.265 Y110.702 E11.87799
G1 X159.382 Y111.012 E11.88423
G1 X161.345 Y110.464 E11.92256
G1 X168.302 Y110.464 E12.05343
G1 X170.467 Y111.116 E12.09596
G1 X175.47 Y115.872 E12.22581
G1 X175.717 Y115.816 E12.23057
G1 X178.082 Y115.769 E12.27507
G1 X179.814 Y116.17 E12.30851
G1 X181.835 Y116.928 E12.34911
G1 X183.761 Y118.681 E12.3981
G1 X184.961 Y120.438 E12.43812
G1 X185.654 Y122.25 E12.47462
G1 X186.008 Y124.994 E12.52666
G1 X185.329 Y127.565 E12.57668
G1 X184.105 Y129.835 E12.62519
G0 F9000 X183.786 Y129.584
G1 F1800 X182.093 Y131.115 E12.66813
G1 X180.077 Y132.291 E12.71203
G1 X177.504 Y132.705 E12.76105
G1 X175.224 Y132.455 E12.8042
G1 X173.69 Y131.876 E12.83504
G1 X172.621 Y131.875 E12.85515
G1 X170.801 Y131.284 E12.89114
G1 X164.031 Y124.836 E13.06701
G1 X161.283 Y124.837 E13.1187
G1 X159.82 Y124.471 E13.14707
G1 X158.392 Y123.368 E13.18101
G1 X158.224 Y123.144 E13.18628
G1 X157.86 Y123.576 E13.1969
G1 X156.592 Y124.361 E13.22496
G1 X155.153 Y124.761 E13.25305
G1 X152.269 Y124.761 E13.3073
G1 X150.808 Y124.396 E13.33563
G1 X149.322 Y123.247 E13.37096
G1 X148.499 Y121.919 E13.40035
G1 X148.098 Y120.478 E13.42849
G1 X148.098 Y112.598 E13.57671
G1 X148.451 Y111.195 E13.60393
G1 X149.384 Y109.899 E13.63397
G1 X150.626 Y108.908 E13.66385
G1 X152.369 Y108.426 E13.69787
G1 X155.263 Y108.426 E13.75231
G1 X156.666 Y108.779 E13.77952
G1 X157.962 Y109.712 E13.80956
G1 X158.952 Y110.952 E13.83941
G1 X159.167 Y111.729 E13.85457
G1 X159.631 Y111.357 E13.86576
G1 X161.398 Y110.864 E13.90027
G1 X168.243 Y110.864 E14.02903
G1 X170.26 Y111.471 E14.06865
G1 X175.358 Y116.318 E14.20097
G1 X175.725 Y116.216 E14.20813
G1 X178.04 Y116.17 E14.25169
G1 X179.674 Y116.545 E14.28322
G1 X181.623 Y117.276 E14.32238
G1 X183.457 Y118.945 E14.36903
G1 X184.603 Y120.623 E14.40725
G1 X185.263 Y122.349 E14.44201
G1 X185.601 Y124.968 E14.49168
G1 X184.954 Y127.418 E14.53935
G1 X183.786 Y129.584 E14.58564
G0 F9000 X183.467 Y129.333
G1 F1800 X181.858 Y130.788 E14.62644
G1 X179.938 Y131.908 E14.66826
G1 X177.495 Y132.301 E14.7148
G1 X175.315 Y132.062 E14.75605
G1 X173.762 Y131.476 E14.78728
G1 X172.684 Y131.475 E14.80755
G1 X171.012 Y130.932 E14.84062
G1 X164.191 Y124.436 E15.01781
G1 X161.332 Y124.437 E15.07158
G1 X160 Y124.104 E15.09741
G1 X158.637 Y123.051 E15.12981
G1 X158.26 Y122.441 E15.1433
G1 X157.65 Y123.236 E15.16215
G1 X156.43 Y123.991 E15.18914
G1 X155.1 Y124.361 E15.2151
G1 X152.318 Y124.361 E15.26744
G1 X150.986 Y124.028 E15.29326
G1 X149.624 Y122.975 E15.32565
G1 X148.868 Y121.755 E15.35264
G1 X148.498 Y120.425 E15.37861
G1 X148.498 Y112.648 E15.5249
G1 X148.82 Y111.368 E15.54973
G1 X149.677 Y110.178 E15.57731
G1 X150.812 Y109.272 E15.60463
G1 X152.425 Y108.826 E15.63611
G1 X155.213 Y108.826 E15.68856
G1 X156.493 Y109.148 E15.71338
G1 X157.683 Y110.005 E15.74097
G1 X158.589 Y111.14 E15.76829
G1 X158.944 Y112.422 E15.79331
G1 X159.819 Y111.719 E15.81442
G1 X161.451 Y111.264 E15.84629
G1 X168.185 Y111.264 E15.97296
G1 X170.053 Y111.826 E16.00966
G1 X175.256 Y116.774 E16.14472
G1 X175.733 Y116.616 E16.15417
G1 X177.999 Y116.571 E16.1968
G1 X179.534 Y116.92 E16.22642
G1 X181.411 Y117.624 E16.26412
G1 X183.153 Y119.209 E16.30843
G1 X184.245 Y120.808 E16.34485
G1 X184.872 Y122.448 E16.37788
G1 X185.194 Y124.942 E16.42518
G1 X184.579 Y127.271 E16.47049
G1 X183.467 Y129.333 E16.51456
G0 F9000 X183.148 Y129.082
G1 F1800 X181.623 Y130.461 E16.55323
G1 X179.799 Y131.525 E16.59296
G1 X177.486 Y131.897 E16.63702
G1 X175.406 Y131.669 E16.67638
G1 X173.834 Y131.076 E16.70799
G1 X172.747 Y131.075 E16.72843
G1 X171.223 Y130.58 E16.75858
G1 X164.351 Y124.036 E16.93708
G1 X161.381 Y124.037 E16.99294
G1 X160.178 Y123.736 E17.01627
G1 X158.94 Y122.779 E17.0457
G1 X158.295 Y121.738 E17.06874
G1 X157.379 Y122.933 E17.09706
G1 X156.266 Y123.622 E17.12169
G1 X155.047 Y123.961 E17.14549
G1 X152.367 Y123.961 E17.1959
G1 X151.164 Y123.66 E17.21923
G1 X149.926 Y122.703 E17.24866
G1 X149.237 Y121.591 E17.27327
G1 X148.898 Y120.372 E17.29707
G1 X148.898 Y112.698 E17.44142
G1 X149.189 Y111.541 E17.46386
G1 X149.97 Y110.457 E17.48899
G1 X150.998 Y109.636 E17.51374
G1 X152.481 Y109.226 E17.54268
G1 X155.163 Y109.226 E17.59313
G1 X156.32 Y109.517 E17.61557
G1 X157.404 Y110.298 E17.64071
G1 X158.225 Y111.326 E17.66545
G1 X158.635 Y112.809 E17.6944
G1 X158.635 Y113.383 E17.70519
G1 X158.974 Y112.911 E17.71612
G1 X160.007 Y112.081 E17.74105
G1 X161.504 Y111.664 E17.77028
G1 X168.127 Y111.664 E17.89486
G1 X169.846 Y112.181 E17.92863
G1 X175.163 Y117.238 E18.06666
G1 X175.741 Y117.016 E18.07831
G1 X177.959 Y116.972 E18.12004
G1 X179.394 Y117.295 E18.1477
G1 X181.199 Y117.972 E18.18397
G1 X182.849 Y119.473 E18.22593
G1 X183.887 Y120.993 E18.26055
G1 X184.481 Y122.547 E18.29184
G1 X184.787 Y124.916 E18.33678
G1 X184.204 Y127.124 E18.37973
G1 X183.148 Y129.082 E18.42158
G0 F9000 X182.829 Y128.831
G1 F1800 X181.388 Y130.134 E18.45812
G1 X179.66 Y131.142 E18.49575
G1 X177.477 Y131.493 E18.53734
G1 X175.497 Y131.276 E18.57481
G1 X173.906 Y130.676 E18.6068
G1 X172.81 Y130.675 E18.62741
G1 X171.434 Y130.228 E18.65463
G1 X164.511 Y123.636 E18.83445
G1 X161.43 Y123.637 E18.8924
G1 X160.357 Y123.368 E18.91321
G1 X159.242 Y122.507 E18.93971
G1 X158.62 Y121.503 E18.96193
G1 X158.312 Y120.395 E18.98356
G1 X158.315 Y115.186 E19.08154
G1 X158.575 Y114.152 E19.1016
G1 X159.266 Y113.19 E19.12388
G1 X160.195 Y112.443 E19.1463
G1 X161.557 Y112.064 E19.1729
G1 X168.069 Y112.064 E19.29539
G1 X169.639 Y112.536 E19.32623
G1 X175.07 Y117.702 E19.46722
G1 X175.82 Y117.415 E19.48233
G1 X177.921 Y117.373 E19.52186
G1 X179.254 Y117.67 E19.54755
G1 X180.987 Y118.32 E19.58236
G1 X182.545 Y119.737 E19.62198
G1 X183.529 Y121.178 E19.6548
G1 X184.09 Y122.646 E19.68436
G1 X184.38 Y124.89 E19.72693
G1 X183.829 Y126.977 E19.76753
G1 X182.829 Y128.831 E19.80715
G0 F9000 X182.51 Y128.58
G1 F1800 X181.153 Y129.807 E19.84157
G1 X179.521 Y130.759 E19.87711
G1 X177.468 Y131.089 E19.91622
G1 X175.588 Y130.883 E19.9518
G1 X173.978 Y130.276 E19.98416
G1 X172.873 Y130.275 E20.00495
G1 X171.645 Y129.876 E20.02923
G1 X164.722 Y123.284 E20.20905
G1 X164.428 Y123.236 E20.21466
G1 X161.479 Y123.237 E20.27013
G1 X160.536 Y123 E20.28842
G1 X159.544 Y122.235 E20.31198
G1 X158.989 Y121.339 E20.33181
G1 X158.712 Y120.342 E20.35127
G1 X158.715 Y115.235 E20.44734
G1 X158.944 Y114.323 E20.46503
G1 X159.559 Y113.467 E20.48485
G1 X160.382 Y112.806 E20.50471
G1 X161.61 Y112.464 E20.52869
G1 X168.011 Y112.464 E20.64909
G1 X169.432 Y112.891 E20.677
G1 X174.977 Y118.166 E20.82097
G1 X175.899 Y117.814 E20.83953
G1 X177.88 Y117.774 E20.8768
G1 X179.113 Y118.045 E20.90055
G1 X180.776 Y118.669 E20.93396
G1 X182.241 Y120.001 E20.97121
G1 X183.171 Y121.363 E21.00223
G1 X183.699 Y122.745 E21.03006
G1 X183.973 Y124.864 E21.07025
G1 X183.454 Y126.83 E21.1085
G1 X182.51 Y128.58 E21.1459
G0 F9000 X182.191 Y128.329
G1 F1800 X180.918 Y129.48 E21.17818
G1 X179.382 Y130.376 E21.21163
G1 X177.459 Y130.685 E21.24827
G1 X175.679 Y130.49 E21.28195
G1 X174.05 Y129.876 E21.3147
G1 X172.936 Y129.875 E21.33565
G1 X171.856 Y129.524 E21.35702
G1 X165.051 Y123.045 E21.53376
G1 X164.81 Y122.893 E21.53912
G1 X164.462 Y122.836 E21.54575
G1 X161.529 Y122.837 E21.60092
G1 X160.714 Y122.632 E21.61673
G1 X159.846 Y121.963 E21.63735
G1 X159.358 Y121.175 E21.65478
G1 X159.112 Y120.289 E21.67208
G1 X159.115 Y115.285 E21.76621
G1 X159.314 Y114.494 E21.78155
G1 X159.851 Y113.746 E21.79887
G1 X160.57 Y113.168 E21.81622
G1 X161.663 Y112.864 E21.83756
G1 X167.953 Y112.864 E21.95588
G1 X169.225 Y113.246 E21.98086
G1 X174.845 Y118.593 E22.12678
G1 X174.971 Y118.596 E22.12915
G1 X175.977 Y118.213 E22.1494
G1 X177.839 Y118.175 E22.18443
G1 X179.027 Y118.436 E22.20731
G1 X180.563 Y119.016 E22.2382
G1 X181.937 Y120.265 E22.27313
G1 X182.813 Y121.548 E22.30235
G1 X183.308 Y122.844 E22.32845
G1 X183.566 Y124.838 E22.36627
G1 X183.079 Y126.683 E22.40216
G1 X182.191 Y128.329 E22.43734
G0 F9000 X181.872 Y128.078
G1 F1800 X180.683 Y129.153 E22.46749
G1 X179.243 Y129.993 E22.49885
G1 X177.45 Y130.281 E22.53301
G1 X175.77 Y130.097 E22.5648
G1 X174.122 Y129.476 E22.59793
G1 X172.999 Y129.475 E22.61905
