;START_OF_HEADER
;HEADER_VERSION:0.1
;FLAVOR:Griffin
;GENERATOR.NAME:Cura_SteamEngine
;GENERATOR.VERSION:5.6.0
;GENERATOR.BUILD_DATE:2023-11-28
;TARGET_MACHINE.NAME:Ultimaker S5
;EXTRUDER_TRAIN.0.INITIAL_TEMPERATURE:240
;EXTRUDER_TRAIN.0.MATERIAL.VOLUME_USED:5390
;EXTRUDER_TRAIN.0.MATERIAL.GUID:1cbfaeb3-1906-4b26-b2e7-6f777a8c197a
;EXTRUDER_TRAIN.0.NOZZLE.DIAMETER:0.4
;EXTRUDER_TRAIN.0.NOZZLE.NAME:AA 0.4
;BUILD_PLATE.INITIAL_TEMPERATURE:85
;BUILD_VOLUME.TEMPERATURE:37
;PRINT.TIME:2020
;PRINT.GROUPS:1
;PRINT.SIZE.MIN.X:138.573
;PRINT.SIZE.MIN.Y:95.351
;PRINT.SIZE.MIN.Z:0.3
;PRINT.SIZE.MAX.X:191.424
;PRINT.SIZE.MAX.Y:137.259
;PRINT.SIZE.MAX.Z:35.1
;SLICE_UUID:ca4fb2c8-a7cc-48e1-a482-98596c6e7c79
;END_OF_HEADER
;Generated with Cura_SteamEngine 5.6.0
T0
M82 ;absolute extrusion mode

G92 E0
M190 S85
M109 S240
G280 S1
G0 Z20.001
G1 F2700 E-8
;LAYER_COUNT:118
;LAYER:0
M106 S51
M204 S1000
M205 X20 Y20
G0 F9000 X188.216 Y115.553 Z0.3
;TYPE:SKIRT
G1 F900 E0
G1 F1800 X186.7 Y116.959 E0.03889
G1 X185.486 Y117.79 E0.06657
G1 X183.741 Y118.725 E0.10381
G1 X182.036 Y119.178 E0.13699
G1 X180.625 Y119.381 E0.16381
G1 X178.226 Y120.893 E0.21715
G1 X178.223 Y122.073 E0.23934
G1 X177.723 Y124.598 E0.28776
G1 X176.127 Y126.845 E0.33961
G1 X173.983 Y128.59 E0.39161
G1 X171.552 Y129.197 E0.43874
G1 X158.273 Y129.197 E0.68852
G1 X155.461 Y128.233 E0.74444
G1 X153.738 Y126.656 E0.78838
G1 X152.163 Y124.407 E0.84003
G1 X151.808 Y121.928 E0.88713
G1 X151.795 Y120.908 E0.90632
G1 X149.326 Y119.36 E0.96114
G1 X148.106 Y119.209 E0.98426
G1 X146.216 Y118.727 E1.02095
G1 X143.848 Y117.363 E1.07236
G1 X143.027 Y116.745 E1.09169
G1 X141.32 Y115.018 E1.13736
G1 X140.276 Y113.53 E1.17155
G1 X139.342 Y111.759 E1.20922
G1 X138.659 Y109.146 E1.26002
G1 X138.573 Y106.377 E1.31213
G1 X139.152 Y103.615 E1.36522
G1 X140.281 Y101.132 E1.41652
G1 X142.15 Y98.877 E1.47162
G1 X142.982 Y98.118 E1.4928
G1 X144.984 Y96.684 E1.53912
G1 X147.23 Y95.85 E1.58419
G1 X149.162 Y95.357 E1.6217
G1 X152.165 Y95.351 E1.67819
G1 X154.87 Y96.089 E1.73093
G1 X156.236 Y96.634 E1.75859
G1 X158.453 Y98.085 E1.80843
G1 X160.033 Y99.807 E1.8524
G1 X161.259 Y101.618 E1.89353
G1 X161.945 Y103.036 E1.92316
G1 X168.095 Y103.03 E2.03885
G1 X169.089 Y100.983 E2.08165
G1 X170.127 Y99.6 E2.11418
G1 X171.585 Y98.056 E2.15413
G1 X173.784 Y96.615 E2.20358
G1 X175.846 Y95.859 E2.24489
G1 X177.845 Y95.356 E2.28367
G1 X180.778 Y95.352 E2.33884
G1 X183.29 Y96.011 E2.38769
G1 X185.097 Y96.722 E2.42422
G1 X187.299 Y98.373 E2.47599
G1 X188.698 Y99.811 E2.51373
G1 X189.743 Y101.188 E2.54624
G1 X190.835 Y103.591 E2.59589
G1 X191.424 Y106.394 E2.64977
G1 X191.335 Y108.559 E2.69053
G1 X191.121 Y109.919 E2.71643
G1 X190.635 Y111.623 E2.74976
G1 X189.882 Y113.443 E2.78681
G1 X188.216 Y115.553 E2.83738
G0 F9000 X187.943 Y115.26
G1 F1800 X186.473 Y116.629 E2.87517
G1 X185.297 Y117.437 E2.902
G1 X183.593 Y118.35 E2.93837
G1 X181.933 Y118.791 E2.97068
G1 X180.485 Y118.997 E2.99819
G1 X177.826 Y120.672 E3.0573
G1 X177.823 Y122.035 E3.08294
G1 X177.348 Y124.435 E3.12896
G1 X175.831 Y126.571 E3.17824
G1 X173.801 Y128.223 E3.22748
G1 X171.503 Y128.797 E3.27203
G1 X158.339 Y128.797 E3.51965
G1 X155.67 Y127.882 E3.57273
G1 X154.043 Y126.393 E3.61421
G1 X152.545 Y124.255 E3.66332
G1 X152.208 Y121.923 E3.70764
G1 X152.192 Y120.685 E3.73093
G1 X149.464 Y118.974 E3.7915
G1 X148.205 Y118.821 E3.81536
G1 X146.367 Y118.352 E3.85104
G1 X144.089 Y117.043 E3.90046
G1 X143.268 Y116.425 E3.91979
G1 X141.647 Y114.788 E3.96313
G1 X140.63 Y113.343 E3.99637
G1 X139.717 Y111.612 E4.03318
G1 X139.058 Y109.09 E4.08221
G1 X138.974 Y106.409 E4.13267
G1 X139.533 Y103.743 E4.18391
G1 X140.623 Y101.345 E4.23346
G1 X142.42 Y99.173 E4.28648
G1 X143.252 Y98.414 E4.30767
G1 X145.173 Y97.04 E4.3521
G1 X147.329 Y96.238 E4.39537
G1 X149.214 Y95.757 E4.43196
G1 X152.112 Y95.751 E4.48647
G1 X154.722 Y96.461 E4.53735
G1 X156.051 Y96.991 E4.56427
G1 X158.193 Y98.393 E4.61242
G1 X159.738 Y100.077 E4.65541
G1 X160.899 Y101.793 E4.69438
G1 X161.475 Y102.98 E4.7192
G1 X161.646 Y103.436 E4.72836
G1 X168.346 Y103.43 E4.85439
G1 X169.433 Y101.191 E4.90121
G1 X170.418 Y99.875 E4.93213
G1 X171.844 Y98.365 E4.9712
G1 X173.964 Y96.976 E5.01888
G1 X175.984 Y96.235 E5.05935
G1 X177.895 Y95.756 E5.09641
G1 X180.726 Y95.752 E5.14966
G1 X183.188 Y96.398 E5.19754
G1 X184.902 Y97.075 E5.23221
G1 X187.013 Y98.652 E5.28177
G1 X188.379 Y100.053 E5.31858
G1 X189.398 Y101.396 E5.35029
G1 X190.454 Y103.719 E5.39829
G1 X191.022 Y106.424 E5.45028
G1 X190.935 Y108.543 E5.49018
G1 X190.736 Y109.81 E5.5143
G1 X190.265 Y111.47 E5.54676
G1 X189.532 Y113.242 E5.58283
G1 X187.943 Y115.26 E5.63115
G0 F9000 X187.67 Y114.967
G1 F1800 X186.2 Y116.336 E5.66893
G1 X185.108 Y117.084 E5.69383
G1 X183.445 Y117.975 E5.72932
G1 X181.83 Y118.404 E5.76075
G1 X180.345 Y118.613 E5.78896
G1 X177.426 Y120.451 E5.85385
G1 X177.423 Y121.997 E5.88293
G1 X176.973 Y124.272 E5.92655
G1 X175.536 Y126.295 E5.97323
G1 X173.617 Y127.857 E6.01977
G1 X171.454 Y128.397 E6.06171
G1 X158.405 Y128.397 E6.30717
G1 X155.879 Y127.531 E6.3574
G1 X154.348 Y126.13 E6.39643
G1 X152.927 Y124.103 E6.443
G1 X152.608 Y121.918 E6.48454
G1 X152.589 Y120.462 E6.51193
G1 X149.602 Y118.588 E6.57826
G1 X148.304 Y118.433 E6.60284
G1 X146.518 Y117.977 E6.63752
G1 X144.33 Y116.723 E6.68496
G1 X143.509 Y116.105 E6.70429
G1 X141.932 Y114.507 E6.74652
G1 X140.984 Y113.156 E6.77756
G1 X140.092 Y111.465 E6.81353
G1 X139.457 Y109.034 E6.86079
G1 X139.375 Y106.441 E6.90959
G1 X139.914 Y103.871 E6.95898
G1 X140.964 Y101.561 E7.00671
G1 X142.69 Y99.469 E7.05773
G1 X143.522 Y98.71 E7.07892
G1 X145.362 Y97.397 E7.12144
G1 X147.428 Y96.626 E7.16292
G1 X149.266 Y96.157 E7.1986
G1 X152.059 Y96.151 E7.25114
G1 X154.574 Y96.833 E7.30015
G1 X155.866 Y97.348 E7.32632
G1 X157.933 Y98.701 E7.37279
G1 X159.443 Y100.347 E7.4148
G1 X160.539 Y101.968 E7.45161
G1 X161.1 Y103.12 E7.47571
G1 X161.368 Y103.836 E7.49009
G1 X168.653 Y103.83 E7.62713
G1 X168.781 Y103.451 E7.63465
G1 X169.778 Y101.396 E7.67762
G1 X170.709 Y100.15 E7.70688
G1 X172.103 Y98.674 E7.74507
G1 X174.144 Y97.337 E7.79096
G1 X176.122 Y96.611 E7.8306
G1 X177.944 Y96.156 E7.86592
G1 X180.674 Y96.152 E7.91728
G1 X183.086 Y96.785 E7.96418
G1 X184.705 Y97.427 E7.99694
G1 X186.727 Y98.932 E8.04436
G1 X188.06 Y100.295 E8.08022
G1 X189.054 Y101.605 E8.11115
G1 X190.072 Y103.845 E8.15744
G1 X190.62 Y106.454 E8.20758
G1 X190.535 Y108.527 E8.24661
G1 X190.351 Y109.701 E8.26896
G1 X189.895 Y111.317 E8.30055
G1 X189.183 Y113.038 E8.33558
G1 X187.67 Y114.967 E8.3817
G0 F9000 X187.355 Y114.72
G1 F1800 X185.928 Y116.043 E8.4183
G1 X184.919 Y116.731 E8.44127
G1 X183.297 Y117.6 E8.47589
G1 X181.727 Y118.017 E8.50644
G1 X180.205 Y118.229 E8.53535
G1 X177.026 Y120.231 E8.60602
G1 X177.023 Y121.959 E8.63852
G1 X176.598 Y124.109 E8.67975
G1 X175.24 Y126.021 E8.72386
G1 X173.435 Y127.49 E8.76764
G1 X171.405 Y127.997 E8.807
G1 X158.471 Y127.997 E9.05029
G1 X156.088 Y127.18 E9.09768
G1 X154.65 Y125.864 E9.13435
G1 X153.309 Y123.952 E9.17828
G1 X153.008 Y121.913 E9.21705
G1 X152.986 Y120.239 E9.24854
G1 X149.74 Y118.202 E9.32063
G1 X148.403 Y118.045 E9.34595
G1 X146.668 Y117.602 E9.37963
G1 X144.571 Y116.403 E9.42507
G1 X143.75 Y115.785 E9.4444
G1 X142.259 Y114.277 E9.48429
G1 X141.338 Y112.969 E9.51438
G1 X140.467 Y111.318 E9.54949
G1 X139.856 Y108.978 E9.59499
G1 X139.777 Y106.477 E9.64206
G1 X140.297 Y103.995 E9.68976
G1 X141.306 Y101.775 E9.73563
G1 X142.96 Y99.765 E9.78459
G1 X143.792 Y99.006 E9.80578
G1 X145.551 Y97.754 E9.84639
G1 X147.527 Y97.014 E9.88608
G1 X149.318 Y96.557 E9.92085
G1 X152.007 Y96.551 E9.97143
G1 X154.426 Y97.205 E10.01857
G1 X155.681 Y97.705 E10.04398
G1 X157.673 Y99.009 E10.08877
G1 X159.112 Y100.572 E10.12873
G1 X160.179 Y102.143 E10.16445
G1 X160.74 Y103.295 E10.18855
G1 X161.09 Y104.236 E10.20744
G1 X168.943 Y104.23 E10.35516
G1 X169.141 Y103.626 E10.36712
G1 X170.122 Y101.605 E10.40937
G1 X171 Y100.425 E10.43704
G1 X172.362 Y98.983 E10.47435
G1 X174.327 Y97.695 E10.51855
G1 X176.219 Y96.999 E10.55647
G1 X177.993 Y96.556 E10.59086
G1 X180.623 Y96.552 E10.64034
G1 X182.939 Y97.157 E10.68536
G1 X184.51 Y97.78 E10.71715
G1 X186.441 Y99.212 E10.76237
G1 X187.741 Y100.537 E10.79729
G1 X188.71 Y101.814 E10.82744
G1 X189.69 Y103.971 E10.87201
G1 X190.218 Y106.484 E10.92031
G1 X190.135 Y108.511 E10.95847
G1 X189.966 Y109.593 E10.97907
G1 X189.525 Y111.164 E11.00977
G1 X188.834 Y112.834 E11.04376
G1 X187.355 Y114.72 E11.08885
G0 F9000 X187.04 Y114.473
G1 F1800 X185.702 Y115.713 E11.12316
G1 X184.73 Y116.378 E11.14532
G1 X183.149 Y117.225 E11.17906
G1 X181.624 Y117.63 E11.20874
G1 X180.066 Y117.845 E11.23832
G1 X176.626 Y120.011 E11.31479
G1 X176.623 Y121.921 E11.35072
G1 X176.223 Y123.946 E11.38954
G1 X174.944 Y125.747 E11.43109
G1 X173.253 Y127.123 E11.4721
G1 X171.356 Y127.597 E11.50888
G1 X158.537 Y127.597 E11.75002
G1 X156.297 Y126.829 E11.79456
G1 X154.952 Y125.598 E11.82886
G1 X153.691 Y123.801 E11.87015
G1 X153.408 Y121.908 E11.90616
G1 X153.383 Y120.016 E11.94175
G1 X149.877 Y117.815 E12.01962
G1 X148.502 Y117.657 E12.04565
G1 X146.816 Y117.227 E12.07838
G1 X144.812 Y116.083 E12.12179
G1 X143.991 Y115.465 E12.14112
G1 X142.586 Y114.046 E12.17868
G1 X141.692 Y112.782 E12.2078
G1 X140.842 Y111.171 E12.24207
G1 X140.255 Y108.922 E12.28579
G1 X140.179 Y106.513 E12.33113
G1 X140.68 Y104.119 E12.37713
G1 X141.649 Y101.988 E12.42117
G1 X143.23 Y100.061 E12.46806
G1 X144.062 Y99.302 E12.48924
G1 X145.742 Y98.109 E12.528
G1 X147.626 Y97.402 E12.56585
G1 X149.37 Y96.957 E12.59971
G1 X151.955 Y96.951 E12.64833
G1 X154.278 Y97.577 E12.69359
G1 X155.496 Y98.062 E12.71825
G1 X157.411 Y99.316 E12.76131
G1 X158.781 Y100.797 E12.79926
G1 X159.848 Y102.368 E12.83498
G1 X160.365 Y103.435 E12.85728
G1 X160.812 Y104.636 E12.88139
G1 X169.235 Y104.63 E13.03983
G1 X169.501 Y103.801 E13.05621
G1 X170.467 Y101.81 E13.09783
G1 X171.291 Y100.7 E13.12384
G1 X172.621 Y99.292 E13.16027
G1 X174.511 Y98.053 E13.20278
G1 X176.316 Y97.387 E13.23897
G1 X178.042 Y96.956 E13.27244
G1 X180.572 Y96.952 E13.32003
G1 X182.791 Y97.529 E13.36316
G1 X184.313 Y98.133 E13.39396
G1 X186.156 Y99.493 E13.43704
G1 X187.422 Y100.779 E13.47099
G1 X188.365 Y102.022 E13.50034
G1 X189.309 Y104.099 E13.54325
G1 X189.816 Y106.514 E13.58967
G1 X189.735 Y108.495 E13.62696
G1 X189.581 Y109.485 E13.64581
G1 X189.155 Y111.011 E13.67561
G1 X188.485 Y112.63 E13.70857
G1 X187.04 Y114.473 E13.75263
G0 F9000 X186.767 Y114.18
G1 F1800 X185.475 Y115.383 E13.78583
G1 X184.541 Y116.025 E13.80715
G1 X183.001 Y116.85 E13.84002
G1 X181.521 Y117.243 E13.86882
G1 X179.925 Y117.461 E13.89912
G1 X176.226 Y119.789 E13.98133
G1 X176.223 Y121.884 E14.02074
G1 X175.848 Y123.783 E14.05715
G1 X174.649 Y125.471 E14.0961
G1 X173.069 Y126.757 E14.13442
G1 X171.307 Y127.197 E14.16858
G1 X158.603 Y127.197 E14.40755
G1 X156.506 Y126.478 E14.44925
G1 X155.254 Y125.332 E14.48118
G1 X154.073 Y123.65 E14.51984
G1 X153.804 Y121.849 E14.55409
G1 X153.781 Y119.793 E14.59277
G1 X150.014 Y117.428 E14.67644
G1 X148.601 Y117.269 E14.70318
G1 X146.967 Y116.852 E14.73491
G1 X145.053 Y115.763 E14.77633
G1 X144.232 Y115.145 E14.79566
G1 X142.912 Y113.814 E14.83092
G1 X142.046 Y112.595 E14.85905
G1 X141.217 Y111.024 E14.89246
G1 X140.654 Y108.866 E14.93441
G1 X140.581 Y106.549 E14.97802
G1 X141.064 Y104.241 E15.02237
G1 X141.99 Y102.203 E15.06448
G1 X143.5 Y100.357 E15.10934
G1 X144.332 Y99.598 E15.13053
G1 X145.928 Y98.467 E15.16732
G1 X147.767 Y97.777 E15.20427
G1 X149.421 Y97.357 E15.23637
G1 X151.903 Y97.351 E15.28306
G1 X154.13 Y97.949 E15.32643
G1 X155.311 Y98.419 E15.35034
G1 X157.152 Y99.625 E15.39174
G1 X158.45 Y101.022 E15.42761
G1 X159.517 Y102.593 E15.46334
G1 X159.99 Y103.575 E15.48384
G1 X160.534 Y105.036 E15.51316
G1 X169.529 Y105.03 E15.68236
G1 X169.861 Y103.976 E15.70315
G1 X170.81 Y102.019 E15.74406
G1 X171.582 Y100.975 E15.76849
G1 X172.883 Y99.598 E15.80412
G1 X174.69 Y98.413 E15.84477
G1 X176.413 Y97.775 E15.87933
G1 X178.091 Y97.356 E15.91186
G1 X180.522 Y97.352 E15.95759
G1 X182.643 Y97.901 E15.9988
G1 X184.117 Y98.486 E16.02864
G1 X185.918 Y99.815 E16.07074
G1 X187.103 Y101.021 E16.10254
G1 X188.021 Y102.231 E16.13111
G1 X188.927 Y104.225 E16.17231
G1 X189.414 Y106.544 E16.21688
G1 X189.335 Y108.479 E16.25331
G1 X189.196 Y109.378 E16.27042
G1 X188.785 Y110.858 E16.29932
G1 X188.135 Y112.429 E16.3313
G1 X186.767 Y114.18 E16.3731
G0 F9000 X186.494 Y113.888
G1 F1800 X185.248 Y115.054 E16.4052
G1 X184.352 Y115.672 E16.42567
G1 X182.853 Y116.475 E16.45766
G1 X181.418 Y116.856 E16.48559
G1 X179.784 Y117.077 E16.5166
G1 X175.826 Y119.567 E16.60456
G1 X175.823 Y121.847 E16.64745
G1 X175.473 Y123.62 E16.68145
G1 X174.353 Y125.197 E16.71783
G1 X172.887 Y126.39 E16.75338
G1 X171.258 Y126.797 E16.78497
G1 X158.669 Y126.797 E17.02177
G1 X156.715 Y126.127 E17.06063
G1 X155.556 Y125.066 E17.09019
G1 X154.455 Y123.499 E17.12621
G1 X154.2 Y121.79 E17.15872
G1 X154.179 Y119.57 E17.20048
G1 X150.149 Y117.04 E17.28998
G1 X148.7 Y116.881 E17.3174
G1 X147.116 Y116.477 E17.34815
G1 X145.294 Y115.443 E17.38756
G1 X144.473 Y114.825 E17.40689
G1 X143.238 Y113.582 E17.43985
G1 X142.4 Y112.408 E17.46698
G1 X141.592 Y110.877 E17.49955
G1 X141.053 Y108.81 E17.53973
G1 X140.983 Y106.585 E17.5816
G1 X141.448 Y104.363 E17.62431
G1 X142.332 Y102.417 E17.66451
G1 X143.77 Y100.653 E17.70732
G1 X144.602 Y99.894 E17.72851
G1 X146.119 Y98.822 E17.76345
G1 X147.865 Y98.165 E17.79854
G1 X149.472 Y97.757 E17.82973
G1 X151.853 Y97.751 E17.87451
G1 X153.982 Y98.321 E17.91597
G1 X155.126 Y98.776 E17.93913
G1 X156.894 Y99.934 E17.97889
G1 X158.12 Y101.248 E18.01269
G1 X159.157 Y102.767 E18.04729
G1 X159.615 Y103.715 E18.06709
G1 X160.102 Y105.023 E18.09335
G1 X160.165 Y105.436 E18.10121
G1 X169.878 Y105.43 E18.28391
G1 X169.956 Y105.006 E18.29202
G1 X170.221 Y104.151 E18.30886
G1 X171.154 Y102.228 E18.34907
G1 X171.904 Y101.213 E18.3728
G1 X173.142 Y99.906 E18.40667
G1 X174.869 Y98.773 E18.44552
G1 X176.51 Y98.163 E18.47845
G1 X178.14 Y97.756 E18.51006
G1 X180.473 Y97.752 E18.55394
G1 X182.495 Y98.273 E18.59322
G1 X183.923 Y98.84 E18.62212
G1 X185.633 Y100.096 E18.66203
G1 X186.784 Y101.263 E18.69286
G1 X187.676 Y102.439 E18.72063
G1 X188.546 Y104.353 E18.76018
G1 X189.012 Y106.574 E18.80286
G1 X188.935 Y108.463 E18.83843
G1 X188.81 Y109.272 E18.85382
G1 X188.415 Y110.705 E18.88179
G1 X187.785 Y112.227 E18.91277
G1 X186.494 Y113.888 E18.95234
G0 F9000 X186.178 Y113.642
G1 F1800 X185.02 Y114.725 E18.98217
G1 X184.163 Y115.319 E19.00178
G1 X182.705 Y116.1 E19.03289
G1 X181.315 Y116.469 E19.05995
G1 X179.837 Y116.667 E19.088
G1 X179.681 Y116.669 E19.09093
G1 X175.426 Y119.345 E19.18548
G1 X175.423 Y121.81 E19.23185
G1 X175.098 Y123.457 E19.26343
G1 X174.058 Y124.921 E19.29721
G1 X172.703 Y126.024 E19.33008
G1 X171.209 Y126.397 E19.35904
G1 X158.735 Y126.397 E19.59368
G1 X156.924 Y125.776 E19.6297
G1 X155.858 Y124.8 E19.65688
G1 X154.837 Y123.348 E19.69027
G1 X154.596 Y121.731 E19.72103
G1 X154.577 Y119.347 E19.76587
G1 X150.284 Y116.652 E19.86122
G1 X148.799 Y116.493 E19.88931
G1 X147.265 Y116.102 E19.91909
G1 X145.535 Y115.123 E19.95648
G1 X144.714 Y114.505 E19.97581
G1 X143.563 Y113.349 E20.0065
G1 X142.754 Y112.221 E20.03261
G1 X141.967 Y110.73 E20.06432
G1 X141.452 Y108.754 E20.10273
G1 X141.384 Y106.617 E20.14295
G1 X141.83 Y104.489 E20.18385
G1 X142.675 Y102.629 E20.22228
G1 X144.04 Y100.949 E20.263
G1 X144.872 Y100.19 E20.28418
G1 X146.308 Y99.178 E20.31723
G1 X147.963 Y98.553 E20.3505
G1 X149.523 Y98.157 E20.38078
G1 X151.799 Y98.151 E20.42359
G1 X153.834 Y98.693 E20.46321
G1 X154.941 Y99.133 E20.48561
G1 X156.634 Y100.242 E20.52369
G1 X157.79 Y101.474 E20.55546
G1 X158.797 Y102.942 E20.58895
G1 X159.24 Y103.855 E20.60804
G1 X159.727 Y105.163 E20.63429
G1 X159.813 Y105.836 E20.64706
G1 X170.214 Y105.83 E20.84271
G1 X170.339 Y105.122 E20.85623
G1 X170.581 Y104.326 E20.87188
G1 X171.498 Y102.437 E20.91138
G1 X172.226 Y101.451 E20.93443
G1 X173.398 Y100.216 E20.96646
G1 X175.051 Y99.133 E21.00363
G1 X176.607 Y98.551 E21.03488
G1 X178.189 Y98.156 E21.06555
G1 X180.421 Y98.152 E21.10754
