;START_OF_HEADER
;HEADER_VERSION:0.1
;FLAVOR:Griffin
;GENERATOR.NAME:Cura_SteamEngine
;GENERATOR.VERSION:5.6.0
;GENERATOR.BUILD_DATE:2023-11-28
;TARGET_MACHINE.NAME:Ultimaker S5
;EXTRUDER_TRAIN.0.INITIAL_TEMPERATURE:240
;EXTRUDER_TRAIN.0.MATERIAL.VOLUME_USED:7386
;EXTRUDER_TRAIN.0.MATERIAL.GUID:1cbfaeb3-1906-4b26-b2e7-6f777a8c197a
;EXTRUDER_TRAIN.0.NOZZLE.DIAMETER:0.4
;EXTRUDER_TRAIN.0.NOZZLE.NAME:AA 0.4
;BUILD_PLATE.INITIAL_TEMPERATURE:85
;BUILD_VOLUME.TEMPERATURE:37
;PRINT.TIME:2937
;PRINT.GROUPS:1
;PRINT.SIZE.MIN.X:137.104
;PRINT.SIZE.MIN.Y:99.352
;PRINT.SIZE.MIN.Z:0.3
;PRINT.SIZE.MAX.X:192.887
;PRINT.SIZE.MAX.Y:134.349
;PRINT.SIZE.MAX.Z:24.9
;SLICE_UUID:f0ff9cea-6392-4d30-91a1-c37d39dc6bc5
;END_OF_HEADER
;Generated with Cura_SteamEngine 5.6.0
T0
M82 ;absolute extrusion mode

G92 E0
M190 S85
M109 S240
G280 S1
G0 Z20.001
G1 F2700 E-8
;LAYER_COUNT:83
;LAYER:0
M106 S51
M204 S1000
M205 X20 Y20
G0 F9000 X190.369 Y125.906 Z0.3
;TYPE:SKIRT
G1 F900 E0
G1 F1800 X189.105 Y127.45 E0.03753
G1 X188.146 Y128.344 E0.0622
G1 X186.769 Y129.374 E0.09454
G1 X184.93 Y130.459 E0.13471
G1 X182.512 Y131.234 E0.18247
G1 X182.19 Y131.683 E0.19286
G1 X180.319 Y133.186 E0.23801
G1 X177.745 Y133.904 E0.28828
G1 X171.262 Y133.905 E0.41022
G1 X169.027 Y133.348 E0.45355
G1 X166.797 Y131.623 E0.50658
G1 X165.572 Y129.647 E0.55032
G1 X165.01 Y127.629 E0.58972
G1 X164.482 Y129.755 E0.63093
G1 X163.096 Y131.683 E0.67559
G1 X161.225 Y133.186 E0.72074
G1 X158.651 Y133.904 E0.771
G1 X152.167 Y133.905 E0.89297
G1 X149.932 Y133.348 E0.9363
G1 X147.762 Y131.669 E0.98791
G1 X147.451 Y131.219 E0.9982
G1 X146.729 Y131.077 E1.01204
G1 X144.261 Y129.989 E1.06278
G1 X142.692 Y129.077 E1.09691
G1 X140.465 Y127.075 E1.15324
G1 X139.024 Y124.981 E1.20106
G1 X138.32 Y123.639 E1.22956
G1 X137.788 Y122.278 E1.25705
G1 X137.213 Y119.817 E1.30459
G1 X137.104 Y118.251 E1.33412
G1 X137.148 Y116.898 E1.35958
G1 X137.325 Y115.568 E1.38482
G1 X137.892 Y113.458 E1.42592
G1 X138.507 Y111.996 E1.45576
G1 X139.642 Y110.119 E1.49702
G1 X140.568 Y108.959 E1.52494
G1 X141.656 Y107.837 E1.55434
G1 X142.138 Y106.926 E1.57372
G1 X142.937 Y105.8 E1.59969
G1 X143.767 Y104.819 E1.62387
G1 X144.479 Y104.077 E1.64321
G1 X145.051 Y103.541 E1.65796
G1 X145.924 Y102.822 E1.67923
G1 X146.827 Y102.172 E1.70016
G1 X148.182 Y101.355 E1.72992
G1 X149.244 Y100.826 E1.75224
G1 X149.992 Y100.508 E1.76753
G1 X150.962 Y100.161 E1.78691
G1 X151.942 Y99.874 E1.80612
G1 X152.683 Y99.701 E1.82043
G1 X153.932 Y99.486 E1.84427
G1 X154.547 Y99.417 E1.85591
G1 X155.849 Y99.352 E1.88043
G1 X174.264 Y99.387 E2.22683
G1 X175.694 Y99.531 E2.25386
G1 X176.557 Y99.688 E2.27036
G1 X177.722 Y99.974 E2.29293
G1 X178.403 Y100.182 E2.30632
G1 X179.52 Y100.596 E2.32873
G1 X180.22 Y100.902 E2.3431
G1 X181.344 Y101.478 E2.36686
G1 X182.446 Y102.15 E2.39114
G1 X183.14 Y102.637 E2.40709
G1 X183.929 Y103.267 E2.42608
G1 X184.719 Y103.98 E2.4461
G1 X185.538 Y104.815 E2.4681
G1 X186.455 Y105.917 E2.49507
G1 X187.229 Y107.017 E2.52037
G1 X187.702 Y107.36 E2.53136
G1 X189.338 Y108.862 E2.57313
G1 X190.151 Y109.837 E2.59701
G1 X191.327 Y111.547 E2.63605
G1 X192.388 Y114.136 E2.68868
G1 X192.794 Y116.365 E2.7313
G1 X192.887 Y117.538 E2.75344
G1 X192.696 Y120.386 E2.80713
G1 X192.431 Y121.553 E2.82964
G1 X191.88 Y123.186 E2.86206
G1 X191.357 Y124.311 E2.88539
G1 X190.369 Y125.906 E2.92069
G0 F9000 X190.059 Y125.653
G1 F1800 X188.832 Y127.157 E2.9572
G1 X187.873 Y128.051 E2.98186
G1 X186.566 Y129.029 E3.01257
G1 X184.764 Y130.092 E3.05192
G1 X182.634 Y130.775 E3.094
G1 X182.3 Y130.844 E3.10041
G1 X181.898 Y131.404 E3.11338
G1 X180.131 Y132.824 E3.15602
G1 X177.692 Y133.504 E3.20365
G1 X171.311 Y133.505 E3.32368
G1 X169.205 Y132.98 E3.36451
G1 X167.099 Y131.351 E3.41459
G1 X165.941 Y129.483 E3.45593
G1 X165.385 Y127.487 E3.49491
G1 X165.389 Y120.433 E3.6276
G1 X164.581 Y120.433 E3.6428
G1 X164.61 Y121.171 E3.65669
G1 X164.616 Y127.578 E3.77721
G1 X164.112 Y129.584 E3.81612
G1 X162.804 Y131.404 E3.85828
G1 X161.037 Y132.824 E3.90092
G1 X158.598 Y133.504 E3.94855
G1 X152.216 Y133.505 E4.06859
G1 X150.11 Y132.98 E4.10942
G1 X148.007 Y131.353 E4.15944
G1 X147.698 Y130.859 E4.1704
G1 X146.847 Y130.692 E4.18671
G1 X144.462 Y129.643 E4.23572
G1 X142.928 Y128.752 E4.26909
G1 X140.767 Y126.808 E4.32377
G1 X139.353 Y124.754 E4.37068
G1 X138.693 Y123.493 E4.39745
G1 X138.161 Y122.132 E4.42494
G1 X137.612 Y119.789 E4.4702
G1 X137.504 Y118.263 E4.49898
G1 X137.545 Y116.951 E4.52367
G1 X137.722 Y115.621 E4.54891
G1 X138.261 Y113.613 E4.58802
G1 X138.876 Y112.151 E4.61785
G1 X139.955 Y110.369 E4.65704
G1 X140.881 Y109.209 E4.68496
G1 X141.983 Y108.075 E4.7147
G1 X142.464 Y107.157 E4.7342
G1 X143.242 Y106.058 E4.75953
G1 X144.056 Y105.096 E4.78323
G1 X144.753 Y104.369 E4.80218
G1 X145.325 Y103.833 E4.81692
G1 X146.158 Y103.147 E4.83722
G1 X147.061 Y102.497 E4.85815
G1 X148.388 Y101.698 E4.88729
G1 X149.4 Y101.194 E4.90855
G1 X150.127 Y100.885 E4.92341
G1 X151.097 Y100.538 E4.94279
G1 X152.033 Y100.264 E4.96114
G1 X152.774 Y100.091 E4.97545
G1 X153.977 Y99.884 E4.99841
G1 X154.592 Y99.815 E5.01005
G1 X155.848 Y99.752 E5.03371
G1 X174.224 Y99.785 E5.37937
G1 X175.622 Y99.925 E5.4058
G1 X176.485 Y100.082 E5.4223
G1 X177.605 Y100.357 E5.44399
G1 X178.286 Y100.565 E5.45739
G1 X179.36 Y100.963 E5.47893
G1 X180.06 Y101.269 E5.4933
G1 X181.136 Y101.82 E5.51604
G1 X182.238 Y102.492 E5.54032
G1 X182.89 Y102.95 E5.55531
G1 X183.679 Y103.58 E5.5743
G1 X184.433 Y104.26 E5.5934
G1 X185.252 Y105.095 E5.6154
G1 X186.128 Y106.147 E5.64115
G1 X186.762 Y107.047 E5.66186
G1 X186.909 Y107.28 E5.66705
G1 X187.432 Y107.655 E5.67915
G1 X189.031 Y109.119 E5.71993
G1 X189.821 Y110.064 E5.7431
G1 X190.974 Y111.741 E5.78138
G1 X192.001 Y114.247 E5.83233
G1 X192.4 Y116.437 E5.8742
G1 X192.488 Y117.569 E5.89556
G1 X192.306 Y120.297 E5.94699
G1 X192.041 Y121.464 E5.9695
G1 X191.517 Y123.017 E6.00033
G1 X190.994 Y124.142 E6.02367
G1 X190.059 Y125.653 E6.05709
G0 F9000 X189.749 Y125.401
G1 F1800 X188.559 Y126.865 E6.09258
G1 X187.633 Y127.731 E6.11643
G1 X186.363 Y128.684 E6.14629
G1 X184.599 Y129.724 E6.18481
G1 X182.553 Y130.383 E6.22525
G1 X182.067 Y130.483 E6.23458
G1 X181.605 Y131.127 E6.24949
G1 X179.944 Y132.461 E6.28956
G1 X177.639 Y133.104 E6.33458
G1 X171.36 Y133.105 E6.45269
G1 X169.383 Y132.612 E6.49102
G1 X167.401 Y131.079 E6.53815
G1 X166.31 Y129.319 E6.5771
G1 X165.785 Y127.434 E6.61391
G1 X165.789 Y120.89 E6.737
G1 X165.828 Y120.032 E6.75316
G1 X164.165 Y120.034 E6.78444
G1 X164.21 Y121.171 E6.80585
G1 X164.216 Y127.528 E6.92543
G1 X163.742 Y129.413 E6.96199
G1 X162.511 Y131.127 E7.00168
G1 X160.85 Y132.461 E7.04176
G1 X158.545 Y133.104 E7.08677
G1 X152.265 Y133.105 E7.2049
G1 X150.288 Y132.612 E7.24323
G1 X148.308 Y131.08 E7.29032
G1 X147.945 Y130.499 E7.30321
G1 X146.965 Y130.307 E7.32199
G1 X144.663 Y129.297 E7.36928
G1 X143.162 Y128.425 E7.40193
G1 X141.07 Y126.544 E7.45485
G1 X139.707 Y124.568 E7.5
G1 X139.066 Y123.347 E7.52594
G1 X138.534 Y121.986 E7.55343
G1 X138.011 Y119.76 E7.59644
G1 X137.904 Y118.275 E7.62445
G1 X137.942 Y117.004 E7.64837
G1 X138.119 Y115.674 E7.67361
G1 X138.63 Y113.767 E7.71075
G1 X139.218 Y112.358 E7.73946
G1 X140.268 Y110.619 E7.77768
G1 X141.194 Y109.459 E7.8056
G1 X142.178 Y108.449 E7.83212
G1 X142.288 Y108.356 E7.83483
G1 X142.791 Y107.388 E7.85535
G1 X143.548 Y106.316 E7.88004
G1 X144.345 Y105.373 E7.90326
G1 X145.027 Y104.661 E7.92181
G1 X145.599 Y104.125 E7.93655
G1 X146.392 Y103.472 E7.95588
G1 X147.295 Y102.822 E7.97681
G1 X148.567 Y102.056 E8.00474
G1 X149.557 Y101.562 E8.02555
G1 X150.262 Y101.262 E8.03996
G1 X151.232 Y100.915 E8.05934
G1 X152.124 Y100.654 E8.07682
G1 X152.865 Y100.481 E8.09114
G1 X154.022 Y100.282 E8.11322
G1 X154.637 Y100.213 E8.12486
G1 X155.847 Y100.152 E8.14765
G1 X174.184 Y100.183 E8.49258
G1 X175.55 Y100.319 E8.5184
G1 X176.413 Y100.476 E8.5349
G1 X177.488 Y100.74 E8.55572
G1 X178.169 Y100.948 E8.56912
G1 X179.2 Y101.33 E8.5898
G1 X179.9 Y101.636 E8.60417
G1 X180.954 Y102.176 E8.62645
G1 X182.008 Y102.819 E8.64967
G1 X182.64 Y103.263 E8.6642
G1 X183.429 Y103.893 E8.68319
G1 X184.147 Y104.54 E8.70137
G1 X184.966 Y105.375 E8.72337
G1 X185.801 Y106.377 E8.74791
G1 X186.423 Y107.26 E8.76823
G1 X186.611 Y107.559 E8.77487
G1 X187.162 Y107.95 E8.78758
G1 X188.724 Y109.376 E8.82736
G1 X189.514 Y110.321 E8.85053
G1 X190.62 Y111.932 E8.88729
G1 X191.616 Y114.362 E8.93669
G1 X192.001 Y116.468 E8.97696
G1 X192.089 Y117.6 E8.99832
G1 X191.916 Y120.208 E9.04749
G1 X191.651 Y121.375 E9.07
G1 X191.154 Y122.848 E9.09924
G1 X190.631 Y123.973 E9.12258
G1 X189.749 Y125.401 E9.15415
G0 F9000 X189.409 Y125.19
G1 F1800 X188.285 Y126.573 E9.18767
G1 X187.392 Y127.411 E9.21071
G1 X186.16 Y128.339 E9.23972
G1 X184.434 Y129.356 E9.27741
G1 X182.472 Y129.991 E9.3162
G1 X181.833 Y130.123 E9.32847
G1 X181.313 Y130.848 E9.34525
G1 X179.756 Y132.099 E9.38282
G1 X177.586 Y132.704 E9.4252
G1 X171.409 Y132.705 E9.54139
G1 X169.561 Y132.244 E9.57722
G1 X167.703 Y130.807 E9.6214
G1 X166.679 Y129.155 E9.65796
G1 X166.185 Y127.381 E9.6926
G1 X166.189 Y120.908 E9.81436
G1 X166.247 Y119.632 E9.83839
G1 X163.749 Y119.634 E9.88538
G1 X163.81 Y121.171 E9.91431
G1 X163.816 Y127.479 E10.03297
G1 X163.373 Y129.242 E10.06716
G1 X162.219 Y130.848 E10.10436
G1 X160.662 Y132.099 E10.14194
G1 X158.492 Y132.704 E10.18431
G1 X152.314 Y132.705 E10.30052
G1 X150.466 Y132.244 E10.33635
G1 X148.609 Y130.807 E10.38052
G1 X148.192 Y130.139 E10.39533
G1 X147.085 Y129.922 E10.41655
G1 X144.864 Y128.951 E10.46215
G1 X143.396 Y128.098 E10.49408
G1 X141.375 Y126.281 E10.54521
G1 X140.061 Y124.381 E10.58866
G1 X139.439 Y123.201 E10.61375
G1 X138.907 Y121.84 E10.64124
G1 X138.401 Y119.669 E10.68317
G1 X138.304 Y118.286 E10.70925
G1 X138.339 Y117.057 E10.73238
G1 X138.516 Y115.727 E10.75762
G1 X139 Y113.92 E10.79281
G1 X139.561 Y112.564 E10.82041
G1 X140.581 Y110.868 E10.85764
G1 X141.481 Y109.738 E10.88481
G1 X142.465 Y108.728 E10.91134
G1 X142.606 Y108.613 E10.91476
G1 X143.118 Y107.619 E10.93579
G1 X143.875 Y106.547 E10.96048
G1 X144.634 Y105.65 E10.98258
G1 X145.301 Y104.953 E11.00073
G1 X145.873 Y104.417 E11.01547
G1 X146.626 Y103.797 E11.03382
G1 X147.529 Y103.147 E11.05475
G1 X148.746 Y102.414 E11.08147
G1 X149.736 Y101.92 E11.10228
G1 X150.397 Y101.639 E11.1158
G1 X151.345 Y101.299 E11.13474
G1 X152.215 Y101.044 E11.15179
G1 X152.956 Y100.871 E11.16611
G1 X154.067 Y100.68 E11.18731
G1 X154.682 Y100.611 E11.19895
G1 X155.846 Y100.552 E11.22088
G1 X174.145 Y100.581 E11.56509
G1 X175.479 Y100.713 E11.59031
G1 X176.318 Y100.865 E11.60635
G1 X177.371 Y101.123 E11.62674
G1 X178.052 Y101.331 E11.64013
G1 X179.04 Y101.697 E11.65995
G1 X179.74 Y102.003 E11.67432
G1 X180.746 Y102.518 E11.69558
G1 X181.778 Y103.147 E11.71832
G1 X182.39 Y103.576 E11.73238
G1 X183.179 Y104.206 E11.75137
G1 X183.861 Y104.82 E11.76863
G1 X184.68 Y105.655 E11.79063
G1 X185.474 Y106.608 E11.81396
G1 X186.084 Y107.473 E11.83387
G1 X186.314 Y107.839 E11.842
G1 X186.893 Y108.246 E11.85532
G1 X188.417 Y109.633 E11.89408
G1 X189.207 Y110.578 E11.91725
G1 X190.266 Y112.123 E11.95248
G1 X191.231 Y114.477 E12.00034
G1 X191.602 Y116.499 E12.03901
G1 X191.69 Y117.631 E12.06037
G1 X191.526 Y120.119 E12.10727
G1 X191.261 Y121.286 E12.12978
G1 X190.791 Y122.679 E12.15743
G1 X190.268 Y123.804 E12.18077
G1 X189.409 Y125.19 E12.21144
G0 F9000 X189.098 Y124.938
G1 F1800 X188.011 Y126.281 E12.24394
G1 X187.118 Y127.119 E12.26698
G1 X185.957 Y127.994 E12.29433
G1 X184.265 Y128.991 E12.33127
G1 X182.391 Y129.599 E12.36833
G1 X181.6 Y129.763 E12.38352
G1 X181.021 Y130.569 E12.40219
G1 X179.568 Y131.737 E12.43726
G1 X177.533 Y132.304 E12.477
G1 X171.458 Y132.305 E12.59127
G1 X169.739 Y131.876 E12.6246
G1 X168.005 Y130.535 E12.66583
G1 X167.048 Y128.991 E12.7
G1 X166.585 Y127.328 E12.73247
G1 X166.589 Y120.926 E12.8529
G1 X166.629 Y120.044 E12.86951
G1 X166.726 Y119.232 E12.88489
G1 X163.282 Y119.234 E12.94967
G1 X163.361 Y119.939 E12.96302
G1 X163.41 Y121.171 E12.98621
G1 X163.416 Y127.429 E13.10393
G1 X163.003 Y129.071 E13.13578
G1 X161.927 Y130.569 E13.17047
G1 X160.474 Y131.737 E13.20554
G1 X158.439 Y132.304 E13.24528
G1 X152.363 Y132.305 E13.35957
G1 X150.644 Y131.876 E13.3929
G1 X148.91 Y130.535 E13.43413
G1 X148.44 Y129.781 E13.45084
G1 X147.209 Y129.539 E13.47444
G1 X145.065 Y128.605 E13.51843
G1 X143.63 Y127.771 E13.54965
G1 X141.68 Y126.018 E13.59898
G1 X140.39 Y124.153 E13.64163
G1 X139.812 Y123.055 E13.66497
G1 X139.28 Y121.694 E13.69246
G1 X138.8 Y119.641 E13.73212
G1 X138.704 Y118.297 E13.75747
G1 X138.736 Y117.11 E13.7798
G1 X138.913 Y115.78 E13.80504
G1 X139.37 Y114.072 E13.8383
G1 X139.904 Y112.77 E13.86477
G1 X140.894 Y111.117 E13.90101
G1 X141.768 Y110.017 E13.92744
G1 X142.718 Y109.038 E13.9531
G1 X142.924 Y108.87 E13.9581
G1 X143.474 Y107.802 E13.9807
G1 X144.18 Y106.805 E14.00368
G1 X144.923 Y105.927 E14.02532
G1 X145.59 Y105.23 E14.04346
G1 X146.128 Y104.726 E14.05733
G1 X146.86 Y104.122 E14.07518
G1 X147.763 Y103.472 E14.09611
G1 X148.952 Y102.757 E14.12221
G1 X149.893 Y102.288 E14.14199
G1 X150.532 Y102.016 E14.15505
G1 X151.48 Y101.676 E14.17399
G1 X152.306 Y101.434 E14.19019
G1 X153.047 Y101.261 E14.2045
G1 X154.112 Y101.078 E14.22483
G1 X154.727 Y101.009 E14.23647
G1 X155.845 Y100.952 E14.25752
G1 X174.106 Y100.979 E14.60102
G1 X175.408 Y101.107 E14.62563
G1 X176.247 Y101.259 E14.64167
G1 X177.254 Y101.506 E14.66118
G1 X177.935 Y101.714 E14.67457
G1 X178.88 Y102.064 E14.69353
G1 X179.58 Y102.37 E14.7079
G1 X180.538 Y102.86 E14.72814
G1 X181.57 Y103.489 E14.75087
G1 X182.14 Y103.889 E14.76397
G1 X182.929 Y104.519 E14.78296
G1 X183.575 Y105.1 E14.79931
G1 X184.394 Y105.935 E14.82131
G1 X185.147 Y106.839 E14.84344
G1 X185.757 Y107.704 E14.86335
G1 X186.019 Y108.122 E14.87263
G1 X186.624 Y108.542 E14.88648
G1 X188.11 Y109.89 E14.92422
G1 X188.9 Y110.835 E14.94739
G1 X189.912 Y112.314 E14.9811
G1 X190.846 Y114.592 E15.02741
G1 X191.203 Y116.53 E15.06448
G1 X191.291 Y117.662 E15.08584
G1 X191.136 Y120.03 E15.13048
G1 X190.871 Y121.197 E15.15299
G1 X190.428 Y122.51 E15.17906
G1 X189.905 Y123.635 E15.20239
G1 X189.098 Y124.938 E15.23122
G0 F9000 X188.787 Y124.687
G1 F1800 X187.737 Y125.99 E15.2627
G1 X186.877 Y126.8 E15.28492
G1 X185.754 Y127.649 E15.3114
G1 X184.097 Y128.625 E15.34758
G1 X182.31 Y129.207 E15.38293
G1 X181.366 Y129.403 E15.40107
G1 X180.728 Y130.292 E15.42165
G1 X179.381 Y131.374 E15.45415
G1 X177.48 Y131.904 E15.49127
G1 X171.507 Y131.905 E15.60363
G1 X169.917 Y131.508 E15.63446
G1 X168.307 Y130.263 E15.67274
G1 X167.417 Y128.827 E15.70452
G1 X166.985 Y127.275 E15.73482
G1 X166.989 Y120.944 E15.85391
G1 X167.029 Y120.062 E15.87052
G1 X167.176 Y118.832 E15.89382
G1 X162.834 Y118.834 E15.9755
G1 X162.963 Y119.984 E15.99726
G1 X163.01 Y121.171 E16.01961
G1 X163.016 Y127.38 E16.13641
G1 X162.634 Y128.9 E16.16589
G1 X161.634 Y130.292 E16.19813
G1 X160.287 Y131.374 E16.23063
G1 X158.386 Y131.904 E16.26775
G1 X152.412 Y131.905 E16.38012
G1 X150.822 Y131.508 E16.41095
G1 X149.212 Y130.263 E16.44923
G1 X148.688 Y129.421 E16.46789
G1 X147.327 Y129.154 E16.49398
G1 X145.266 Y128.259 E16.53624
G1 X143.864 Y127.444 E16.56675
G1 X141.985 Y125.755 E16.61427
G1 X140.744 Y123.966 E16.65523
G1 X140.185 Y122.909 E16.67772
G1 X139.653 Y121.548 E16.70521
G1 X139.199 Y119.612 E16.74262
G1 X139.104 Y118.307 E16.76723
G1 X139.133 Y117.163 E16.78875
G1 X139.31 Y115.833 E16.81399
G1 X139.741 Y114.223 E16.84534
G1 X140.248 Y112.975 E16.87068
G1 X141.208 Y111.365 E16.90594
G1 X142.055 Y110.296 E16.9316
G1 X143.005 Y109.317 E16.95726
G1 X143.241 Y109.129 E16.96294
G1 X143.83 Y107.985 E16.98714
G1 X144.486 Y107.063 E17.00842
G1 X145.212 Y106.204 E17.02958
G1 X145.879 Y105.507 E17.04773
G1 X146.383 Y105.035 E17.06072
G1 X147.115 Y104.431 E17.07857
G1 X147.969 Y103.815 E17.09838
G1 X149.158 Y103.1 E17.12447
G1 X150.05 Y102.656 E17.14322
G1 X150.667 Y102.393 E17.15583
G1 X151.615 Y102.053 E17.17478
G1 X152.397 Y101.824 E17.19011
G1 X153.138 Y101.651 E17.20442
G1 X154.157 Y101.476 E17.22387
G1 X154.772 Y101.407 E17.23551
G1 X155.844 Y101.352 E17.2557
G1 X174.067 Y101.377 E17.59848
