;START_OF_HEADER
;HEADER_VERSION:0.1
;FLAVOR:Griffin
;GENERATOR.NAME:Cura_SteamEngine
;GENERATOR.VERSION:5.6.0
;GENERATOR.BUILD_DATE:2023-11-28
;TARGET_MACHINE.NAME:Ultimaker S5
;EXTRUDER_TRAIN.0.INITIAL_TEMPERATURE:240
;EXTRUDER_TRAIN.0.MATERIAL.VOLUME_USED:9739
;EXTRUDER_TRAIN.0.MATERIAL.GUID:1cbfaeb3-1906-4b26-b2e7-6f777a8c197a
;EXTRUDER_TRAIN.0.NOZZLE.DIAMETER:0.4
;EXTRUDER_TRAIN.0.NOZZLE.NAME:AA 0.4
;BUILD_PLATE.INITIAL_TEMPERATURE:85
;BUILD_VOLUME.TEMPERATURE:37
;PRINT.TIME:3161
;PRINT.GROUPS:1
;PRINT.SIZE.MIN.X:138.857
;PRINT.SIZE.MIN.Y:67.997
;PRINT.SIZE.MIN.Z:0.3
;PRINT.SIZE.MAX.X:191.145
;PRINT.SIZE.MAX.Y:172.03
;PRINT.SIZE.MAX.Z:3.9
;SLICE_UUID:a7b36353-f373-43e6-ae1c-79f23dbb43a4
;END_OF_HEADER
;Generated with Cura_SteamEngine 5.6.0
T0
M82 ;absolute extrusion mode

G92 E0
M190 S85
M109 S240
G280 S1
G0 Z20.001
G1 F2700 E-8
;LAYER_COUNT:13
;LAYER:0
M106 S51
M204 S1000
M205 X20 Y20
G0 F9000 X188.425 Y165.972 Z0.3
;TYPE:SKIRT
G1 F900 E0
G1 F1800 X187.563 Y167.304 E0.02984
G1 X185.947 Y168.913 E0.07274
G1 X183.886 Y170.256 E0.11901
G1 X181.349 Y171.005 E0.16877
G1 X175.631 Y172.03 E0.27805
G1 X173.07 Y171.731 E0.32655
G1 X171.008 Y170.94 E0.36809
G1 X169.358 Y169.826 E0.40554
G1 X167.296 Y167.576 E0.46295
G1 X166.417 Y165.022 E0.51376
G1 X166.088 Y164.601 E0.52381
G1 X165.43 Y164.236 E0.53796
G1 X164.513 Y164.244 E0.55521
G1 X164.148 Y164.418 E0.56282
G1 X163.802 Y164.715 E0.57139
G1 X163.57 Y165.043 E0.57895
G1 X163.274 Y165.878 E0.59562
G1 X162.446 Y167.887 E0.63649
G1 X160.206 Y170.263 E0.69791
G1 X157.167 Y171.732 E0.76141
G1 X154.359 Y172.026 E0.81452
G1 X147.617 Y170.729 E0.94366
G1 X146.293 Y170.229 E0.97028
G1 X144.489 Y169.276 E1.00866
G1 X142.751 Y167.59 E1.05421
G1 X141.735 Y166.241 E1.08598
G1 X141.008 Y164.977 E1.11341
G1 X140.527 Y163.517 E1.14232
G1 X140.116 Y160.908 E1.192
G1 X140.147 Y156.601 E1.27302
G1 X140.288 Y155.345 E1.2968
G1 X140.273 Y154.095 E1.32031
G1 X140.146 Y152.907 E1.34279
G1 X140.049 Y152.356 E1.35331
G1 X139.794 Y151.163 E1.37626
G1 X139.47 Y149.515 E1.40785
G1 X139.238 Y148.012 E1.43646
G1 X139.089 Y146.792 E1.45958
G1 X139.019 Y146.088 E1.47289
G1 X138.92 Y144.786 E1.49745
G1 X138.871 Y143.555 E1.52062
G1 X138.859 Y142.88 E1.53332
G1 X138.857 Y125.162 E1.86661
G1 X138.872 Y122.681 E1.91328
G1 X138.903 Y120.217 E1.95963
G1 X138.947 Y117.739 E2.00625
G1 X139.042 Y114.043 E2.0758
G1 X139.124 Y111.565 E2.12244
G1 X139.227 Y109.074 E2.16933
G1 X139.474 Y104.148 E2.26211
G1 X139.882 Y97.198 E2.39307
G1 X139.983 Y94.976 E2.43491
G1 X140.078 Y91.911 E2.49259
G1 X140.107 Y89.785 E2.53259
G1 X140.185 Y78.207 E2.75038
G1 X140.467 Y76.498 E2.78296
G1 X141.133 Y74.763 E2.81792
G1 X141.793 Y73.481 E2.84504
G1 X143.36 Y71.585 E2.89131
G1 X145.094 Y70.325 E2.93163
G1 X146.896 Y69.33 E2.97035
G1 X151.72 Y68.173 E3.06367
G1 X153.369 Y67.997 E3.09486
G1 X155.738 Y68.381 E3.14001
G1 X157.015 Y68.754 E3.16503
G1 X159.219 Y69.968 E3.21236
G1 X161.069 Y71.749 E3.26067
G1 X164.259 Y76.617 E3.37015
G1 X165.078 Y78.082 E3.40172
G1 X165.725 Y76.756 E3.42947
G1 X166.136 Y76.021 E3.44531
G1 X166.589 Y75.302 E3.4613
G1 X169.092 Y71.504 E3.54686
G1 X170.964 Y69.856 E3.59377
G1 X172.82 Y68.864 E3.63336
G1 X175.082 Y68.071 E3.67845
G1 X178.113 Y68.065 E3.73546
G1 X182.733 Y69.297 E3.8254
G1 X184.587 Y70.077 E3.86324
G1 X186.429 Y71.353 E3.90539
G1 X187.874 Y73.093 E3.94794
G1 X188.663 Y74.361 E3.97603
G1 X189.57 Y76.309 E4.01645
G1 X189.842 Y78.382 E4.05578
G1 X189.888 Y88.866 E4.25299
G1 X189.905 Y91.002 E4.29317
G1 X189.924 Y92.044 E4.31277
G1 X189.986 Y94.2 E4.35335
G1 X190.063 Y96.425 E4.39522
G1 X190.178 Y98.463 E4.43362
G1 X190.403 Y102.056 E4.50134
G1 X190.682 Y106.983 E4.59417
G1 X190.792 Y109.478 E4.64115
G1 X190.962 Y114.25 E4.73097
G1 X191.058 Y118.108 E4.80356
G1 X191.115 Y121.638 E4.86997
G1 X191.137 Y124.118 E4.91662
G1 X191.145 Y126.702 E4.96523
G1 X191.145 Y142.534 E5.26304
G1 X191.121 Y143.833 E5.28748
G1 X191.057 Y145.123 E5.31177
G1 X190.921 Y146.728 E5.34207
G1 X190.735 Y148.217 E5.3703
G1 X190.553 Y149.421 E5.3932
G1 X190.187 Y151.279 E5.42882
G1 X189.964 Y152.32 E5.44885
G1 X189.776 Y153.446 E5.47032
G1 X189.721 Y154.627 E5.49256
G1 X189.715 Y155.205 E5.50344
G1 X189.748 Y155.728 E5.51329
G1 X189.856 Y156.702 E5.53173
G1 X189.888 Y161.915 E5.62979
G1 X189.25 Y164.343 E5.67701
G1 X188.425 Y165.972 E5.71136
G0 F9000 X188.089 Y165.755
G1 F1800 X187.249 Y167.053 E5.74044
G1 X185.695 Y168.6 E5.78169
G1 X183.719 Y169.888 E5.82606
G1 X181.278 Y170.611 E5.87395
G1 X175.616 Y171.626 E5.98215
G1 X173.166 Y171.34 E6.02855
G1 X171.198 Y170.585 E6.0682
G1 X169.619 Y169.519 E6.10404
G1 X167.647 Y167.367 E6.15894
G1 X166.773 Y164.829 E6.20943
G1 X166.362 Y164.303 E6.22199
G1 X165.94 Y164.021 E6.23154
G1 X165.529 Y163.842 E6.23997
G1 X164.976 Y163.799 E6.2504
G1 X164.405 Y163.853 E6.26119
G1 X163.928 Y164.08 E6.27113
G1 X163.506 Y164.442 E6.28159
G1 X163.211 Y164.858 E6.29118
G1 X162.904 Y165.726 E6.3085
G1 X162.104 Y167.667 E6.34799
G1 X159.966 Y169.935 E6.40662
G1 X157.057 Y171.341 E6.4674
G1 X154.376 Y171.622 E6.5181
G1 X147.757 Y170.354 E6.64488
G1 X146.48 Y169.875 E6.67053
G1 X144.726 Y168.949 E6.70784
G1 X143.071 Y167.349 E6.75114
G1 X142.055 Y166 E6.78291
G1 X141.375 Y164.813 E6.80864
G1 X140.907 Y163.392 E6.83678
G1 X140.516 Y160.911 E6.88403
G1 X140.545 Y156.646 E6.96426
G1 X140.688 Y155.369 E6.98843
G1 X140.673 Y154.068 E7.0129
G1 X140.543 Y152.856 E7.03583
G1 X140.443 Y152.287 E7.0467
G1 X140.186 Y151.086 E7.0698
G1 X139.865 Y149.454 E7.10109
G1 X139.635 Y147.964 E7.12945
G1 X139.487 Y146.752 E7.15242
G1 X139.418 Y146.058 E7.16554
G1 X139.32 Y144.77 E7.18983
G1 X139.271 Y143.548 E7.21284
G1 X139.259 Y142.88 E7.22541
G1 X139.257 Y125.164 E7.55865
G1 X139.272 Y122.686 E7.60527
G1 X139.303 Y120.224 E7.65158
G1 X139.347 Y117.749 E7.69815
G1 X139.442 Y114.056 E7.76764
G1 X139.524 Y111.581 E7.81422
G1 X139.626 Y109.094 E7.86104
G1 X139.873 Y104.171 E7.95376
G1 X140.282 Y97.216 E8.08481
G1 X140.383 Y94.994 E8.12665
G1 X140.478 Y91.923 E8.18445
G1 X140.507 Y89.79 E8.22457
G1 X140.58 Y78.272 E8.44124
G1 X140.855 Y76.604 E8.47304
G1 X141.489 Y74.946 E8.50643
G1 X142.13 Y73.701 E8.53277
G1 X143.635 Y71.88 E8.57721
G1 X145.329 Y70.649 E8.6166
G1 X147.04 Y69.707 E8.65334
G1 X151.762 Y68.571 E8.7447
G1 X153.359 Y68.401 E8.77491
G1 X155.626 Y68.765 E8.8181
G1 X156.862 Y69.126 E8.84232
G1 X158.98 Y70.293 E8.88781
G1 X160.757 Y72.004 E8.93421
G1 X163.924 Y76.836 E9.04288
G1 X164.576 Y78.003 E9.06803
G1 X165.09 Y79.122 E9.09119
G1 X165.544 Y78.037 E9.11332
G1 X166.074 Y76.951 E9.13605
G1 X166.475 Y76.234 E9.1515
G1 X166.923 Y75.522 E9.16733
G1 X169.397 Y71.768 E9.2519
G1 X171.194 Y70.186 E9.29693
G1 X172.952 Y69.241 E9.33447
G1 X175.149 Y68.471 E9.37827
G1 X178.059 Y68.465 E9.43301
G1 X182.578 Y69.666 E9.52096
G1 X184.393 Y70.43 E9.558
G1 X186.158 Y71.652 E9.59839
G1 X187.535 Y73.305 E9.63885
G1 X188.3 Y74.53 E9.66602
G1 X189.181 Y76.422 E9.70528
G1 X189.445 Y78.434 E9.74345
G1 X189.488 Y88.869 E9.93974
G1 X189.505 Y91.009 E9.98
G1 X189.524 Y92.055 E9.99968
G1 X189.586 Y94.214 E10.0403
G1 X189.663 Y96.439 E10.08218
G1 X189.779 Y98.488 E10.12079
G1 X190.004 Y102.079 E10.18847
G1 X190.282 Y107.001 E10.2812
G1 X190.392 Y109.492 E10.3281
G1 X190.562 Y114.26 E10.41785
G1 X190.658 Y118.114 E10.49037
G1 X190.715 Y121.642 E10.55674
G1 X190.737 Y124.119 E10.60334
G1 X190.745 Y126.703 E10.65194
G1 X190.745 Y142.527 E10.9496
G1 X190.722 Y143.813 E10.9738
G1 X190.658 Y145.089 E10.99783
G1 X190.524 Y146.678 E11.02782
G1 X190.339 Y148.157 E11.05586
G1 X190.157 Y149.361 E11.07877
G1 X189.796 Y151.195 E11.11393
G1 X189.569 Y152.254 E11.1343
G1 X189.377 Y153.403 E11.15621
G1 X189.321 Y154.608 E11.17891
G1 X189.315 Y155.212 E11.19027
G1 X189.35 Y155.772 E11.20082
G1 X189.458 Y156.746 E11.21926
G1 X189.488 Y161.864 E11.31553
G1 X188.873 Y164.202 E11.361
G1 X188.089 Y165.755 E11.39373
G0 F9000 X187.753 Y165.538
G1 F1800 X186.937 Y166.799 E11.42198
G1 X185.44 Y168.289 E11.46171
G1 X183.549 Y169.521 E11.50417
G1 X181.207 Y170.217 E11.55013
G1 X175.601 Y171.222 E11.65726
G1 X173.262 Y170.949 E11.70155
G1 X171.388 Y170.23 E11.73931
G1 X169.88 Y169.212 E11.77354
G1 X167.998 Y167.158 E11.82594
G1 X167.129 Y164.636 E11.87612
G1 X166.636 Y164.005 E11.89118
G1 X166.132 Y163.668 E11.90258
G1 X165.627 Y163.448 E11.91295
G1 X164.975 Y163.398 E11.92525
G1 X164.297 Y163.462 E11.93806
G1 X163.705 Y163.743 E11.95038
G1 X163.211 Y164.167 E11.96263
G1 X162.852 Y164.673 E11.9743
G1 X162.534 Y165.574 E11.99227
G1 X161.762 Y167.447 E12.03038
G1 X159.726 Y169.607 E12.08622
G1 X156.947 Y170.95 E12.14427
G1 X154.393 Y171.218 E12.19258
G1 X147.897 Y169.979 E12.31698
G1 X146.667 Y169.521 E12.34167
G1 X144.963 Y168.621 E12.37791
G1 X143.349 Y167.061 E12.42014
G1 X142.402 Y165.801 E12.44979
G1 X141.742 Y164.649 E12.47476
G1 X141.287 Y163.267 E12.50213
G1 X140.916 Y160.914 E12.54694
G1 X140.943 Y156.69 E12.6264
G1 X141.088 Y155.392 E12.65096
G1 X141.075 Y154.252 E12.67241
G1 X141.039 Y153.729 E12.68227
G1 X140.94 Y152.805 E12.69975
G1 X140.837 Y152.218 E12.71096
G1 X140.578 Y151.009 E12.73422
G1 X140.26 Y149.393 E12.7652
G1 X140.032 Y147.916 E12.79331
G1 X139.885 Y146.712 E12.81613
G1 X139.817 Y146.028 E12.82906
G1 X139.72 Y144.754 E12.85309
G1 X139.671 Y143.541 E12.87593
G1 X139.659 Y142.88 E12.88836
G1 X139.657 Y125.166 E13.22157
G1 X139.672 Y122.691 E13.26813
G1 X139.703 Y120.231 E13.31441
G1 X139.747 Y117.759 E13.36092
G1 X139.842 Y114.069 E13.43035
G1 X139.924 Y111.597 E13.47688
G1 X140.026 Y109.114 E13.52362
G1 X140.272 Y104.195 E13.61627
G1 X140.682 Y97.234 E13.74743
G1 X140.783 Y95.012 E13.78927
G1 X140.878 Y91.935 E13.84718
G1 X140.907 Y89.795 E13.88744
G1 X140.975 Y78.337 E14.10297
G1 X141.244 Y76.708 E14.13403
G1 X141.845 Y75.129 E14.16581
G1 X142.467 Y73.921 E14.19137
G1 X143.91 Y72.175 E14.23398
G1 X145.564 Y70.973 E14.27244
G1 X147.185 Y70.084 E14.30722
G1 X151.804 Y68.969 E14.3966
G1 X153.349 Y68.805 E14.42582
G1 X155.514 Y69.149 E14.46706
G1 X156.709 Y69.498 E14.49048
G1 X158.741 Y70.618 E14.53412
G1 X160.445 Y72.259 E14.57862
G1 X163.589 Y77.055 E14.68649
G1 X164.212 Y78.17 E14.71052
G1 X164.764 Y79.372 E14.7354
G1 X165.131 Y80.359 E14.75521
G1 X165.291 Y79.804 E14.76607
G1 X165.602 Y78.934 E14.78345
G1 X165.913 Y78.191 E14.7986
G1 X166.423 Y77.146 E14.82048
G1 X166.813 Y76.447 E14.83553
G1 X167.257 Y75.742 E14.85121
G1 X169.702 Y72.032 E14.93478
G1 X171.422 Y70.517 E14.9779
G1 X173.084 Y69.619 E15.01343
G1 X175.219 Y68.871 E15.05599
G1 X178.005 Y68.865 E15.10839
G1 X182.475 Y70.053 E15.1954
G1 X184.197 Y70.781 E15.23056
G1 X185.885 Y71.95 E15.26919
G1 X187.196 Y73.518 E15.30763
G1 X187.937 Y74.699 E15.33386
G1 X188.792 Y76.535 E15.37196
G1 X189.048 Y78.486 E15.40897
G1 X189.088 Y88.872 E15.60434
G1 X189.105 Y91.016 E15.64467
G1 X189.124 Y92.066 E15.66442
G1 X189.186 Y94.228 E15.70511
G1 X189.264 Y96.453 E15.74699
G1 X189.38 Y98.513 E15.7858
G1 X189.605 Y102.101 E15.85342
G1 X189.882 Y107.019 E15.94608
G1 X189.992 Y109.506 E15.99291
G1 X190.162 Y114.27 E16.08258
G1 X190.258 Y118.12 E16.15502
G1 X190.315 Y121.646 E16.22136
G1 X190.337 Y124.12 E16.2679
G1 X190.345 Y126.704 E16.3165
G1 X190.345 Y142.52 E16.61401
G1 X190.322 Y143.793 E16.63796
G1 X190.259 Y145.056 E16.66175
G1 X190.127 Y146.628 E16.69142
G1 X189.943 Y148.097 E16.71927
G1 X189.761 Y149.301 E16.74218
G1 X189.405 Y151.111 E16.77688
G1 X189.174 Y152.188 E16.7976
G1 X188.978 Y153.36 E16.81995
G1 X188.921 Y154.589 E16.84309
G1 X188.915 Y155.219 E16.85494
G1 X188.952 Y155.816 E16.86619
G1 X189.06 Y156.79 E16.88463
G1 X189.088 Y161.813 E16.97911
G1 X188.496 Y164.061 E17.02284
G1 X187.753 Y165.538 E17.05394
G0 F9000 X187.417 Y165.321
G1 F1800 X186.625 Y166.545 E17.08137
G1 X185.185 Y167.978 E17.11958
G1 X183.379 Y169.155 E17.16013
G1 X181.136 Y169.823 E17.20415
G1 X175.586 Y170.818 E17.31022
G1 X173.358 Y170.558 E17.35241
G1 X171.578 Y169.875 E17.38827
G1 X170.141 Y168.905 E17.42089
G1 X168.349 Y166.949 E17.47079
G1 X167.485 Y164.443 E17.52065
G1 X166.912 Y163.709 E17.53816
G1 X166.32 Y163.313 E17.55156
G1 X165.725 Y163.054 E17.56377
G1 X164.974 Y162.996 E17.57794
G1 X164.19 Y163.071 E17.59275
G1 X163.484 Y163.406 E17.60745
G1 X162.912 Y163.896 E17.62162
G1 X162.549 Y164.409 E17.63344
G1 X162.355 Y164.881 E17.64304
G1 X162.164 Y165.422 E17.65383
G1 X161.42 Y167.227 E17.69056
G1 X159.486 Y169.279 E17.7436
G1 X156.837 Y170.559 E17.79894
G1 X154.41 Y170.814 E17.84484
G1 X148.036 Y169.604 E17.96688
G1 X146.854 Y169.167 E17.99059
G1 X145.2 Y168.293 E18.02578
G1 X143.627 Y166.773 E18.06692
G1 X142.749 Y165.602 E18.09446
G1 X142.109 Y164.485 E18.11867
G1 X141.667 Y163.142 E18.14527
G1 X141.316 Y160.916 E18.18766
G1 X141.341 Y156.735 E18.2663
G1 X141.453 Y155.735 E18.28523
G1 X141.486 Y155.2 E18.29532
G1 X141.475 Y154.238 E18.31341
G1 X141.437 Y153.686 E18.32382
G1 X141.337 Y152.754 E18.34145
G1 X141.231 Y152.149 E18.35301
G1 X140.97 Y150.932 E18.37642
G1 X140.655 Y149.332 E18.40709
G1 X140.429 Y147.868 E18.43496
G1 X140.283 Y146.672 E18.45762
G1 X140.216 Y145.998 E18.47036
G1 X140.12 Y144.738 E18.49413
G1 X140.071 Y143.534 E18.5168
G1 X140.059 Y142.88 E18.5291
G1 X140.057 Y125.168 E18.86228
G1 X140.072 Y122.696 E18.90878
G1 X140.103 Y120.238 E18.95502
G1 X140.147 Y117.769 E19.00147
G1 X140.242 Y114.082 E19.07085
G1 X140.324 Y111.613 E19.11732
G1 X140.425 Y109.134 E19.16399
G1 X140.671 Y104.219 E19.25655
G1 X141.082 Y97.252 E19.38784
G1 X141.183 Y95.03 E19.42968
G1 X141.278 Y91.947 E19.4877
G1 X141.307 Y89.8 E19.52809
G1 X141.37 Y78.402 E19.74249
G1 X141.633 Y76.812 E19.77281
G1 X142.201 Y75.312 E19.80298
G1 X142.804 Y74.141 E19.82775
G1 X144.186 Y72.469 E19.86856
G1 X145.756 Y71.324 E19.90511
G1 X147.33 Y70.461 E19.93888
G1 X151.846 Y69.367 E20.02628
G1 X153.34 Y69.208 E20.05454
G1 X155.402 Y69.533 E20.09381
G1 X156.556 Y69.87 E20.11642
G1 X158.502 Y70.943 E20.15823
G1 X160.133 Y72.514 E20.20082
G1 X163.254 Y77.274 E20.30789
G1 X163.848 Y78.337 E20.3308
G1 X164.4 Y79.539 E20.35568
G1 X164.825 Y80.684 E20.37865
G1 X165.146 Y81.749 E20.39958
G1 X165.668 Y79.939 E20.43501
G1 X165.979 Y79.069 E20.45239
G1 X166.282 Y78.345 E20.46715
G1 X166.772 Y77.341 E20.48817
G1 X167.152 Y76.66 E20.50284
G1 X167.591 Y75.962 E20.51835
G1 X170.007 Y72.296 E20.60094
G1 X171.652 Y70.847 E20.64217
G1 X173.216 Y69.997 E20.67566
G1 X175.289 Y69.271 E20.71697
G1 X177.951 Y69.265 E20.76705
G1 X182.372 Y70.44 E20.85309
G1 X184.002 Y71.133 E20.88641
G1 X185.612 Y72.248 E20.92325
G1 X186.889 Y73.775 E20.96069
G1 X187.574 Y74.868 E20.98496
G1 X188.403 Y76.648 E21.02189
G1 X188.651 Y78.538 E21.05775
G1 X188.688 Y88.875 E21.2522
G1 X188.705 Y91.023 E21.2926
G1 X188.724 Y92.077 E21.31243
G1 X188.786 Y94.242 E21.35317
G1 X188.864 Y96.467 E21.39505
G1 X188.981 Y98.538 E21.43407
G1 X189.206 Y102.123 E21.50164
G1 X189.482 Y107.037 E21.59422
G1 X189.592 Y109.52 E21.64097
G1 X189.762 Y114.28 E21.73057
G1 X189.858 Y118.126 E21.80294
G1 X189.915 Y121.65 E21.86923
G1 X189.937 Y124.121 E21.91572
G1 X189.945 Y126.705 E21.96432
G1 X189.945 Y142.513 E22.26168
G1 X189.922 Y143.773 E22.28539
G1 X189.86 Y145.023 E22.30893
G1 X189.73 Y146.578 E22.33828
G1 X189.548 Y148.037 E22.36594
G1 X189.368 Y149.224 E22.38852
G1 X189.014 Y151.027 E22.42309
G1 X188.779 Y152.122 E22.44415
G1 X188.619 Y153.081 E22.46244
G1 X188.566 Y153.607 E22.47238
G1 X188.521 Y154.57 E22.49052
G1 X188.515 Y155.226 E22.50286
G1 X188.554 Y155.86 E22.51481
G1 X188.662 Y156.834 E22.53324
G1 X188.688 Y161.761 E22.62592
G1 X188.119 Y163.923 E22.66798
G1 X187.417 Y165.321 E22.6974
G0 F9000 X187.081 Y165.104
G1 F1800 X186.313 Y166.291 E22.724
G1 X184.93 Y167.667 E22.76069
G1 X183.209 Y168.789 E22.79934
G1 X181.065 Y169.429 E22.84143
G1 X175.571 Y170.414 E22.94642
G1 X173.454 Y170.167 E22.98651
G1 X171.768 Y169.52 E23.02048
G1 X170.402 Y168.598 E23.05148
G1 X168.7 Y166.74 E23.09888
G1 X167.911 Y164.45 E23.14444
G1 X167.679 Y164.041 E23.15329
G1 X167.189 Y163.412 E23.16828
G1 X166.512 Y162.96 E23.1836
G1 X165.824 Y162.66 E23.19772
G1 X164.972 Y162.594 E23.21379
G1 X164.299 Y162.659 E23.22651
G1 X163.9 Y162.766 E23.23428
G1 X163.264 Y163.068 E23.24752
