;START_OF_HEADER
;HEADER_VERSION:0.1
;FLAVOR:Griffin
;GENERATOR.NAME:Cura_SteamEngine
;GENERATOR.VERSION:5.6.0
;GENERATOR.BUILD_DATE:2023-11-28
;TARGET_MACHINE.NAME:Ultimaker S5
;EXTRUDER_TRAIN.0.INITIAL_TEMPERATURE:240
;EXTRUDER_TRAIN.0.MATERIAL.VOLUME_USED:18781
;EXTRUDER_TRAIN.0.MATERIAL.GUID:1cbfaeb3-1906-4b26-b2e7-6f777a8c197a
;EXTRUDER_TRAIN.0.NOZZLE.DIAMETER:0.4
;EXTRUDER_TRAIN.0.NOZZLE.NAME:AA 0.4
;BUILD_PLATE.INITIAL_TEMPERATURE:85
;BUILD_VOLUME.TEMPERATURE:37
;PRINT.TIME:5618
;PRINT.GROUPS:1
;PRINT.SIZE.MIN.X:128.348
;PRINT.SIZE.MIN.Y:58.804
;PRINT.SIZE.MIN.Z:0.3
;PRINT.SIZE.MAX.X:201.651
;PRINT.SIZE.MAX.Y:181.195
;PRINT.SIZE.MAX.Z:6
;SLICE_UUID:5b36808e-1b4c-4247-aeea-490ff227c132
;END_OF_HEADER
;Generated with Cura_SteamEngine 5.6.0
T0
M82 ;absolute extrusion mode

G92 E0
M190 S85
M109 S240
G280 S1
G0 Z20.001
G1 F2700 E-8
;LAYER_COUNT:20
;LAYER:0
M106 S51
M204 S1000
M205 X20 Y20
G0 F9000 X201.179 Y171.274 Z0.3
;TYPE:SKIRT
G1 F900 E0
G1 F1800 X199.818 Y173.622 E0.05105
G1 X196.016 Y178.298 E0.16441
G1 X194.824 Y179.352 E0.19435
G1 X192.719 Y180.495 E0.2394
G1 X190.606 Y181.056 E0.28053
G1 X188.49 Y181.161 E0.32038
G1 X186.283 Y180.807 E0.36242
G1 X183.779 Y179.774 E0.41338
G1 X172.117 Y170.382 E0.69504
G1 X171.51 Y169.91 E0.7095
G1 X170.851 Y169.541 E0.72371
G1 X170.235 Y169.227 E0.73672
G1 X169.762 Y169.055 E0.74618
G1 X169.068 Y168.839 E0.75986
G1 X168.406 Y168.699 E0.77258
G1 X167.749 Y168.605 E0.78507
G1 X166.891 Y168.586 E0.80121
G1 X162.643 Y168.59 E0.88112
G1 X162.077 Y168.63 E0.89179
G1 X161.376 Y168.728 E0.90511
G1 X160.478 Y168.966 E0.92258
G1 X159.963 Y169.155 E0.9329
G1 X159.19 Y169.503 E0.94885
G1 X158.42 Y169.971 E0.9658
G1 X157.844 Y170.419 E0.97952
G1 X147.087 Y179.074 E1.23923
G1 X145.168 Y180.208 E1.28116
G1 X143.521 Y180.875 E1.31459
G1 X140.954 Y181.195 E1.36325
G1 X138.618 Y180.847 E1.40767
G1 X137.209 Y180.46 E1.43516
G1 X135.044 Y179.271 E1.48162
G1 X133.259 Y177.537 E1.52843
G1 X130.397 Y173.953 E1.61471
G1 X129.063 Y171.713 E1.66375
G1 X128.433 Y169.27 E1.71121
G1 X128.437 Y166.461 E1.76405
G1 X129.067 Y164.181 E1.80854
G1 X130.27 Y161.995 E1.85548
G1 X131.927 Y160.286 E1.90025
G1 X136.164 Y156.859 E2.00276
G1 X136.731 Y156.31 E2.01761
G1 X137.162 Y155.804 E2.03011
G1 X137.773 Y154.898 E2.05067
G1 X138.036 Y154.386 E2.06149
G1 X138.31 Y153.757 E2.0744
G1 X138.507 Y153.199 E2.08553
G1 X138.717 Y152.375 E2.10152
G1 X138.826 Y151.554 E2.1171
G1 X138.85 Y150.897 E2.12947
G1 X138.96 Y135.855 E2.41243
G1 X139.21 Y134.439 E2.43947
G1 X140.187 Y132.275 E2.48414
G1 X141.85 Y130.272 E2.53311
G1 X143.123 Y129.458 E2.56153
G1 X143.126 Y117.239 E2.79138
G1 X142.362 Y116.754 E2.8084
G1 X140.768 Y115.238 E2.84978
G1 X139.453 Y112.97 E2.89909
G1 X138.858 Y110.725 E2.94278
G1 X138.85 Y89.088 E3.34978
G1 X138.818 Y88.322 E3.36421
G1 X138.704 Y87.537 E3.37913
G1 X138.5 Y86.757 E3.39429
G1 X138.298 Y86.195 E3.40553
G1 X138.069 Y85.671 E3.41628
G1 X137.824 Y85.202 E3.42624
G1 X137.437 Y84.571 E3.44016
G1 X136.896 Y83.883 E3.45662
G1 X136.472 Y83.435 E3.46823
G1 X136.047 Y83.042 E3.47912
G1 X131.582 Y79.383 E3.5877
G1 X130.295 Y78.048 E3.62259
G1 X129.243 Y76.065 E3.66481
G1 X128.633 Y74.5 E3.69641
G1 X128.348 Y71.694 E3.74946
G1 X128.826 Y68.691 E3.80666
G1 X130.409 Y66.034 E3.86484
G1 X133.513 Y62.19 E3.95778
G1 X135.088 Y60.7 E3.99856
G1 X137.264 Y59.517 E4.04515
G1 X139.374 Y58.954 E4.08623
G1 X141.627 Y58.833 E4.12867
G1 X143.802 Y59.226 E4.17025
G1 X145.709 Y60.064 E4.20943
G1 X147.097 Y60.933 E4.24023
G1 X157.892 Y69.627 E4.50096
G1 X158.291 Y69.933 E4.51042
G1 X158.902 Y70.336 E4.52418
G1 X159.774 Y70.775 E4.54255
G1 X160.282 Y70.958 E4.55271
G1 X160.882 Y71.149 E4.56455
G1 X161.645 Y71.308 E4.57921
G1 X162.247 Y71.394 E4.59065
G1 X163.107 Y71.413 E4.60683
G1 X167.356 Y71.409 E4.68676
G1 X167.916 Y71.369 E4.69732
G1 X168.627 Y71.269 E4.71082
G1 X169.521 Y71.032 E4.72822
G1 X170.05 Y70.838 E4.73882
G1 X170.831 Y70.486 E4.75493
G1 X171.59 Y70.023 E4.77166
G1 X172.143 Y69.59 E4.78487
G1 X182.912 Y60.925 E5.04487
G1 X184.831 Y59.791 E5.0868
G1 X186.478 Y59.124 E5.12023
G1 X189.042 Y58.804 E5.16883
G1 X191.185 Y59.112 E5.20956
G1 X192.758 Y59.53 E5.24017
G1 X194.959 Y60.733 E5.28736
G1 X196.387 Y62.081 E5.3243
G1 X199.862 Y66.43 E5.42901
G1 X200.939 Y68.298 E5.46957
G1 X201.529 Y70.577 E5.51385
G1 X201.631 Y72.679 E5.55344
G1 X201.194 Y74.99 E5.59768
G1 X200.52 Y76.557 E5.62977
G1 X199.639 Y78.087 E5.66298
G1 X198.087 Y79.702 E5.70511
G1 X193.676 Y83.278 E5.81193
G1 X193.134 Y83.853 E5.82679
G1 X192.8 Y84.245 E5.83648
G1 X192.262 Y85.043 E5.85458
G1 X191.962 Y85.62 E5.86681
G1 X191.63 Y86.381 E5.88243
G1 X191.375 Y87.212 E5.89878
G1 X191.264 Y87.762 E5.90934
G1 X191.174 Y88.439 E5.92218
G1 X191.149 Y89.102 E5.93466
G1 X191.059 Y110.666 E6.3403
G1 X190.844 Y112.003 E6.36577
G1 X189.852 Y114.339 E6.41351
G1 X188.137 Y116.432 E6.46441
G1 X186.873 Y117.242 E6.49265
G1 X186.879 Y129.459 E6.72246
G1 X187.858 Y130.085 E6.74432
G1 X189.583 Y131.952 E6.79213
G1 X190.758 Y134.292 E6.84139
G1 X191.07 Y136.181 E6.8774
G1 X191.149 Y150.893 E7.15414
G1 X191.187 Y151.689 E7.16913
G1 X191.28 Y152.393 E7.18249
G1 X191.441 Y153.008 E7.19445
G1 X191.632 Y153.632 E7.20673
G1 X191.953 Y154.367 E7.22181
G1 X192.193 Y154.827 E7.23157
G1 X192.536 Y155.391 E7.24399
G1 X193.081 Y156.087 E7.26062
G1 X193.547 Y156.586 E7.27346
G1 X193.939 Y156.946 E7.28347
G1 X198.435 Y160.634 E7.39286
G1 X199.689 Y161.94 E7.42692
G1 X200.712 Y163.834 E7.46741
G1 X201.364 Y165.475 E7.50062
G1 X201.651 Y168.284 E7.55374
G1 X201.179 Y171.274 E7.61068
G0 F9000 X200.796 Y171.137
G1 F1800 X199.472 Y173.421 E7.66034
G1 X195.751 Y177.998 E7.77129
G1 X194.594 Y179.021 E7.80035
G1 X192.57 Y180.12 E7.84367
G1 X190.544 Y180.658 E7.8831
G1 X188.51 Y180.759 E7.92141
G1 X186.394 Y180.42 E7.96172
G1 X183.985 Y179.426 E8.01074
G1 X172.368 Y170.07 E8.29132
G1 X171.916 Y169.719 E8.30208
G1 X171.495 Y169.443 E8.31155
G1 X171.047 Y169.192 E8.32121
G1 X170.391 Y168.858 E8.33506
G1 X169.881 Y168.673 E8.34526
G1 X169.175 Y168.453 E8.35917
G1 X168.467 Y168.304 E8.37278
G1 X167.782 Y168.206 E8.3858
G1 X166.9 Y168.186 E8.4024
G1 X162.629 Y168.19 E8.48274
G1 X162.038 Y168.232 E8.49388
G1 X161.291 Y168.336 E8.50807
G1 X160.367 Y168.581 E8.52605
G1 X159.804 Y168.788 E8.53733
G1 X159.002 Y169.149 E8.55388
G1 X158.191 Y169.642 E8.57173
G1 X157.598 Y170.103 E8.58586
G1 X146.836 Y178.762 E8.84569
G1 X145.018 Y179.837 E8.88542
G1 X143.419 Y180.484 E8.91786
G1 X140.959 Y180.791 E8.9645
G1 X138.724 Y180.461 E9.007
G1 X137.362 Y180.087 E9.03356
G1 X135.281 Y178.944 E9.07822
G1 X133.572 Y177.287 E9.123
G1 X130.71 Y173.703 E9.20928
G1 X129.436 Y171.557 E9.25622
G1 X128.833 Y169.221 E9.3016
G1 X128.837 Y166.517 E9.35247
G1 X129.441 Y164.33 E9.39515
G1 X130.593 Y162.237 E9.44009
G1 X132.179 Y160.597 E9.483
G1 X136.423 Y157.164 E9.58568
G1 X137.021 Y156.585 E9.60134
G1 X137.487 Y156.038 E9.61486
G1 X138.117 Y155.104 E9.63605
G1 X138.398 Y154.556 E9.64763
G1 X138.681 Y153.907 E9.66095
G1 X138.891 Y153.315 E9.67277
G1 X139.111 Y152.448 E9.68959
G1 X139.225 Y151.59 E9.70587
G1 X139.25 Y150.912 E9.71864
G1 X139.354 Y135.925 E10.00056
G1 X139.595 Y134.56 E10.02663
G1 X140.53 Y132.489 E10.06937
G1 X142.12 Y130.574 E10.11619
G1 X143.523 Y129.677 E10.14752
G1 X143.526 Y117.019 E10.38562
G1 X142.611 Y116.438 E10.40601
G1 X141.085 Y114.987 E10.44562
G1 X139.827 Y112.817 E10.4928
G1 X139.258 Y110.671 E10.53456
G1 X139.25 Y89.071 E10.94087
G1 X139.217 Y88.286 E10.95565
G1 X139.097 Y87.46 E10.97135
G1 X138.883 Y86.64 E10.98729
G1 X138.665 Y86.035 E10.99939
G1 X138.431 Y85.499 E11.01039
G1 X138.175 Y85.009 E11.02079
G1 X137.768 Y84.345 E11.03544
G1 X137.198 Y83.62 E11.05279
G1 X136.751 Y83.148 E11.06502
G1 X136.318 Y82.748 E11.0761
G1 X131.87 Y79.105 E11.18425
G1 X130.621 Y77.81 E11.2181
G1 X129.616 Y75.92 E11.25836
G1 X129.025 Y74.405 E11.28895
G1 X128.751 Y71.705 E11.34
G1 X129.209 Y68.831 E11.39475
G1 X130.753 Y66.239 E11.4515
G1 X133.788 Y62.481 E11.54236
G1 X135.327 Y61.025 E11.58221
G1 X137.413 Y59.891 E11.62688
G1 X139.437 Y59.351 E11.66628
G1 X141.598 Y59.235 E11.70699
G1 X143.688 Y59.612 E11.74694
G1 X145.497 Y60.403 E11.78408
G1 X146.846 Y61.245 E11.81399
G1 X157.641 Y69.939 E12.07472
G1 X158.056 Y70.257 E12.08455
G1 X158.7 Y70.682 E12.09907
G1 X159.616 Y71.143 E12.11835
G1 X160.151 Y71.336 E12.12905
G1 X160.787 Y71.538 E12.14161
G1 X161.57 Y71.701 E12.15665
G1 X162.214 Y71.793 E12.16889
G1 X163.098 Y71.813 E12.18552
G1 X167.37 Y71.809 E12.26588
G1 X167.958 Y71.767 E12.27697
G1 X168.709 Y71.661 E12.29123
G1 X169.645 Y71.413 E12.30945
G1 X170.196 Y71.211 E12.32049
G1 X171.013 Y70.843 E12.33734
G1 X171.824 Y70.348 E12.35522
G1 X172.39 Y69.905 E12.36874
G1 X183.163 Y61.237 E12.62883
G1 X184.981 Y60.162 E12.66856
G1 X186.58 Y59.515 E12.70101
G1 X189.038 Y59.208 E12.7476
G1 X191.128 Y59.508 E12.78732
G1 X192.606 Y59.903 E12.8161
G1 X194.721 Y61.059 E12.86144
G1 X196.112 Y62.372 E12.89742
G1 X199.516 Y66.63 E12.99996
G1 X200.566 Y68.45 E13.03949
G1 X201.131 Y70.634 E13.08192
G1 X201.229 Y72.653 E13.11995
G1 X200.809 Y74.872 E13.16243
G1 X200.173 Y76.357 E13.19281
G1 X199.316 Y77.845 E13.22512
G1 X197.835 Y79.391 E13.26539
G1 X193.407 Y82.981 E13.37262
G1 X192.843 Y83.579 E13.38808
G1 X192.475 Y84.011 E13.39875
G1 X191.918 Y84.837 E13.41749
G1 X191.6 Y85.448 E13.43045
G1 X191.257 Y86.235 E13.4466
G1 X190.986 Y87.119 E13.46399
G1 X190.868 Y87.7 E13.47514
G1 X190.775 Y88.404 E13.4885
G1 X190.749 Y89.087 E13.50136
G1 X190.664 Y110.602 E13.90607
G1 X190.456 Y111.893 E13.93067
G1 X189.506 Y114.131 E13.9764
G1 X187.87 Y116.128 E14.02496
G1 X186.473 Y117.023 E14.05617
G1 X186.479 Y129.678 E14.29422
G1 X187.6 Y130.395 E14.31925
G1 X189.251 Y132.182 E14.36501
G1 X190.373 Y134.416 E14.41204
G1 X190.675 Y136.246 E14.44693
G1 X190.749 Y150.912 E14.72281
G1 X190.788 Y151.726 E14.73814
G1 X190.886 Y152.466 E14.75218
G1 X191.054 Y153.109 E14.76468
G1 X191.259 Y153.778 E14.77784
G1 X191.586 Y154.528 E14.79323
G1 X191.851 Y155.035 E14.80399
G1 X192.206 Y155.619 E14.81685
G1 X192.773 Y156.343 E14.83415
G1 X193.276 Y156.881 E14.848
G1 X193.669 Y157.242 E14.85804
G1 X198.146 Y160.911 E14.96692
G1 X199.362 Y162.178 E14.99995
G1 X200.34 Y163.982 E15.03855
G1 X200.972 Y165.572 E15.07074
G1 X201.248 Y168.274 E15.12183
G1 X200.796 Y171.137 E15.17635
G0 F9000 X200.413 Y171
G1 F1800 X199.126 Y173.22 E15.22462
G1 X195.486 Y177.698 E15.33317
G1 X194.364 Y178.69 E15.36134
G1 X192.421 Y179.745 E15.40293
G1 X190.482 Y180.26 E15.44067
G1 X188.53 Y180.357 E15.47744
G1 X186.503 Y180.032 E15.51605
G1 X184.192 Y179.079 E15.56307
G1 X172.619 Y169.758 E15.8426
G1 X172.153 Y169.397 E15.85368
G1 X171.691 Y169.094 E15.86408
G1 X171.243 Y168.843 E15.87374
G1 X170.55 Y168.49 E15.88837
G1 X170 Y168.291 E15.89937
G1 X169.282 Y168.067 E15.91352
G1 X168.53 Y167.909 E15.92797
G1 X167.814 Y167.807 E15.94158
G1 X166.909 Y167.786 E15.9586
G1 X162.615 Y167.79 E16.03938
G1 X161.999 Y167.834 E16.05099
G1 X161.209 Y167.944 E16.066
G1 X160.243 Y168.2 E16.08479
G1 X159.657 Y168.415 E16.09654
G1 X158.814 Y168.795 E16.11393
G1 X158.249 Y169.138 E16.12636
G1 X157.83 Y169.415 E16.13581
G1 X157.352 Y169.787 E16.1472
G1 X146.585 Y178.45 E16.40716
G1 X144.868 Y179.466 E16.44468
G1 X143.317 Y180.093 E16.47615
G1 X140.964 Y180.387 E16.52076
G1 X138.83 Y180.075 E16.56133
G1 X137.515 Y179.714 E16.58698
G1 X135.52 Y178.618 E16.6298
G1 X133.885 Y177.037 E16.67258
G1 X131.023 Y173.453 E16.75885
G1 X129.809 Y171.401 E16.8037
G1 X129.233 Y169.172 E16.84701
G1 X129.237 Y166.574 E16.89588
G1 X129.816 Y164.478 E16.93678
G1 X130.916 Y162.478 E16.97972
G1 X132.431 Y160.908 E17.02076
G1 X136.682 Y157.469 E17.12361
G1 X137.311 Y156.86 E17.14008
G1 X137.812 Y156.272 E17.15461
G1 X138.459 Y155.313 E17.17637
G1 X138.763 Y154.72 E17.18891
G1 X139.052 Y154.057 E17.20251
G1 X139.275 Y153.428 E17.21506
G1 X139.505 Y152.523 E17.23263
G1 X139.624 Y151.626 E17.24965
G1 X139.65 Y150.927 E17.26281
G1 X139.748 Y135.995 E17.54369
G1 X139.98 Y134.681 E17.56879
G1 X140.873 Y132.703 E17.60962
G1 X142.389 Y130.877 E17.65426
G1 X143.923 Y129.896 E17.68851
G1 X143.926 Y116.799 E17.93487
G1 X142.86 Y116.122 E17.95863
G1 X141.402 Y114.736 E17.99647
G1 X140.2 Y112.663 E18.04154
G1 X139.658 Y110.618 E18.08134
G1 X139.65 Y89.054 E18.48697
G1 X139.616 Y88.251 E18.50209
G1 X139.49 Y87.382 E18.5186
G1 X139.267 Y86.527 E18.53523
G1 X139.037 Y85.888 E18.548
G1 X138.786 Y85.314 E18.55978
G1 X138.526 Y84.816 E18.57035
G1 X138.099 Y84.119 E18.58573
G1 X137.5 Y83.357 E18.60396
G1 X137.023 Y82.854 E18.617
G1 X136.586 Y82.45 E18.62819
G1 X132.158 Y78.827 E18.73582
G1 X130.947 Y77.572 E18.76862
G1 X129.989 Y75.775 E18.80693
G1 X129.417 Y74.31 E18.83651
G1 X129.154 Y71.716 E18.88556
G1 X129.592 Y68.971 E18.93784
G1 X131.097 Y66.444 E18.99317
G1 X134.063 Y62.772 E19.08196
G1 X135.566 Y61.35 E19.12088
G1 X137.562 Y60.265 E19.16361
G1 X139.5 Y59.748 E19.20134
G1 X141.569 Y59.637 E19.24032
G1 X143.572 Y59.998 E19.2786
G1 X145.286 Y60.743 E19.31376
G1 X146.595 Y61.557 E19.34275
G1 X157.39 Y70.251 E19.60348
G1 X157.821 Y70.581 E19.61369
G1 X158.498 Y71.028 E19.62895
G1 X159.455 Y71.51 E19.64911
G1 X160.03 Y71.717 E19.6606
G1 X160.692 Y71.927 E19.67367
G1 X161.493 Y72.094 E19.68906
G1 X162.182 Y72.192 E19.70215
G1 X163.089 Y72.213 E19.71922
G1 X167.384 Y72.209 E19.80001
G1 X168 Y72.165 E19.81162
G1 X168.793 Y72.053 E19.82669
G1 X169.766 Y71.795 E19.84562
G1 X170.342 Y71.584 E19.85716
G1 X171.201 Y71.197 E19.87489
G1 X172.052 Y70.678 E19.89364
G1 X172.637 Y70.22 E19.90761
G1 X183.414 Y61.549 E20.1678
G1 X185.131 Y60.533 E20.20533
G1 X186.682 Y59.906 E20.2368
G1 X189.035 Y59.612 E20.28141
G1 X191.071 Y59.904 E20.3201
G1 X192.455 Y60.276 E20.34705
G1 X194.483 Y61.385 E20.39053
G1 X195.837 Y62.663 E20.42556
G1 X199.169 Y66.83 E20.52592
G1 X200.193 Y68.606 E20.56448
G1 X200.733 Y70.691 E20.60499
G1 X200.827 Y72.627 E20.64145
G1 X200.425 Y74.752 E20.68214
G1 X199.805 Y76.199 E20.71175
G1 X198.994 Y77.604 E20.74226
G1 X197.583 Y79.08 E20.78067
G1 X193.266 Y82.58 E20.88521
G1 X192.906 Y82.929 E20.89465
G1 X192.552 Y83.304 E20.90435
G1 X192.156 Y83.768 E20.91582
G1 X191.574 Y84.632 E20.93542
G1 X191.233 Y85.288 E20.94932
G1 X190.88 Y86.097 E20.96593
G1 X190.599 Y87.016 E20.984
G1 X190.476 Y87.62 E20.9956
G1 X190.375 Y88.378 E21.00998
G1 X190.349 Y89.072 E21.02305
G1 X190.269 Y110.539 E21.42686
G1 X190.069 Y111.783 E21.45056
G1 X189.161 Y113.921 E21.49425
G1 X187.601 Y115.825 E21.54055
G1 X186.073 Y116.804 E21.57469
G1 X186.079 Y129.897 E21.82097
G1 X187.341 Y130.704 E21.84915
G1 X188.92 Y132.413 E21.89292
G1 X189.987 Y134.538 E21.93765
G1 X190.28 Y136.311 E21.97145
G1 X190.349 Y150.931 E22.24647
G1 X190.389 Y151.761 E22.2621
G1 X190.492 Y152.54 E22.27688
G1 X190.671 Y153.226 E22.29021
G1 X190.882 Y153.916 E22.30379
G1 X191.224 Y154.7 E22.31988
G1 X191.502 Y155.232 E22.33117
G1 X191.876 Y155.847 E22.34471
G1 X192.465 Y156.599 E22.36267
G1 X193.005 Y157.176 E22.37754
G1 X193.399 Y157.538 E22.3876
G1 X197.892 Y161.22 E22.49687
G1 X199.036 Y162.416 E22.52801
G1 X199.968 Y164.13 E22.56471
G1 X200.58 Y165.669 E22.59586
G1 X200.845 Y168.264 E22.64493
G1 X200.413 Y171 E22.69703
G0 F9000 X200.03 Y170.863
G1 F1800 X198.78 Y173.019 E22.74391
G1 X195.221 Y177.398 E22.85006
G1 X194.134 Y178.359 E22.87735
G1 X192.272 Y179.37 E22.9172
G1 X190.42 Y179.862 E22.95325
G1 X188.55 Y179.955 E22.98847
G1 X186.614 Y179.645 E23.02535
G1 X184.398 Y178.731 E23.07044
G1 X172.87 Y169.446 E23.34888
G1 X172.39 Y169.075 E23.36029
G1 X171.887 Y168.745 E23.37161
G1 X171.439 Y168.494 E23.38127
G1 X170.709 Y168.122 E23.39668
G1 X170.119 Y167.909 E23.40848
G1 X169.387 Y167.681 E23.4229
G1 X168.596 Y167.514 E23.43811
G1 X167.845 Y167.408 E23.45237
G1 X166.919 Y167.386 E23.4698
G1 X162.601 Y167.39 E23.55102
G1 X161.957 Y167.436 E23.56316
G1 X161.423 Y167.511 E23.57331
G1 X160.924 Y167.606 E23.58286
G1 X160.129 Y167.816 E23.59833
G1 X159.498 Y168.048 E23.61098
G1 X158.626 Y168.441 E23.62897
G1 X158.028 Y168.804 E23.64213
G1 X157.597 Y169.089 E23.65185
G1 X157.106 Y169.471 E23.66355
G1 X146.334 Y178.138 E23.92362
