;START_OF_HEADER
;HEADER_VERSION:0.1
;FLAVOR:Griffin
;GENERATOR.NAME:Cura_SteamEngine
;GENERATOR.VERSION:5.6.0
;GENERATOR.BUILD_DATE:2023-11-28
;TARGET_MACHINE.NAME:Ultimaker S5
;EXTRUDER_TRAIN.0.INITIAL_TEMPERATURE:240
;EXTRUDER_TRAIN.0.MATERIAL.VOLUME_USED:7969
;EXTRUDER_TRAIN.0.MATERIAL.GUID:1cbfaeb3-1906-4b26-b2e7-6f777a8c197a
;EXTRUDER_TRAIN.0.NOZZLE.DIAMETER:0.4
;EXTRUDER_TRAIN.0.NOZZLE.NAME:AA 0.4
;BUILD_PLATE.INITIAL_TEMPERATURE:85
;BUILD_VOLUME.TEMPERATURE:37
;PRINT.TIME:2294
;PRINT.GROUPS:1
;PRINT.SIZE.MIN.X:142.219
;PRINT.SIZE.MIN.Y:60.758
;PRINT.SIZE.MIN.Z:0.3
;PRINT.SIZE.MAX.X:187.833
;PRINT.SIZE.MAX.Y:179.217
;PRINT.SIZE.MAX.Z:6
;SLICE_UUID:8e98d308-51b1-4a5b-8f3d-3c9c10b4a7b8
;END_OF_HEADER
;Generated with Cura_SteamEngine 5.6.0
T0
M82 ;absolute extrusion mode

G92 E0
M190 S85
M109 S240
G280 S1
G0 Z20.001
G1 F2700 E-8
;LAYER_COUNT:20
;LAYER:0
M106 S51
M204 S1000
M205 X20 Y20
G0 F9000 X175.698 Y166.811 Z0.3
;TYPE:SKIRT
G1 F900 E0
G1 F1800 X175.078 Y168.12 E0.02725
G1 X174.592 Y168.974 E0.04573
G1 X173.557 Y170.492 E0.08029
G1 X168.185 Y177.165 E0.24143
G1 X166.318 Y178.564 E0.28532
G1 X163.602 Y179.217 E0.33786
G1 X161.253 Y178.925 E0.38239
G1 X159.301 Y178.082 E0.42238
G1 X150.31 Y170.835 E0.63961
G1 X148.924 Y169 E0.68287
G1 X148.271 Y166.27 E0.73567
G1 X148.563 Y163.954 E0.77958
G1 X149.434 Y161.929 E0.82104
G1 X151.431 Y159.444 E0.88101
G1 X151.903 Y158.693 E0.8977
G1 X152.346 Y157.808 E0.91631
G1 X152.701 Y156.735 E0.93757
G1 X152.9 Y155.498 E0.96114
G1 X152.925 Y154.593 E0.97817
G1 X152.925 Y105.793 E1.89613
G1 X152.869 Y105.102 E1.90917
G1 X152.758 Y104.43 E1.92198
G1 X152.62 Y103.855 E1.9331
G1 X152.352 Y103.069 E1.94872
G1 X152.13 Y102.583 E1.95877
G1 X151.825 Y101.975 E1.97157
G1 X151.425 Y101.376 E1.98512
G1 X150.963 Y100.774 E1.99939
G1 X150.392 Y100.192 E2.01473
G1 X149.714 Y99.572 E2.03201
G1 X149.026 Y98.888 E2.05026
G1 X148.352 Y98.16 E2.06892
G1 X147.409 Y96.998 E2.09707
G1 X146.822 Y96.187 E2.1159
G1 X145.912 Y94.686 E2.14892
G1 X145.388 Y93.464 E2.17393
G1 X144.897 Y91.522 E2.21161
G1 X144.736 Y90.073 E2.23904
G1 X144.972 Y87.968 E2.27888
G1 X145.666 Y85.903 E2.31986
G1 X146.836 Y83.896 E2.36356
G1 X147.138 Y83.575 E2.37185
G1 X144.551 Y80.984 E2.44072
G1 X143.196 Y78.588 E2.4925
G1 X142.508 Y76.894 E2.52689
G1 X142.248 Y74.645 E2.56948
G1 X142.219 Y72.841 E2.60342
G1 X142.824 Y70.502 E2.64886
G1 X143.187 Y69.573 E2.66763
G1 X144.05 Y67.876 E2.70344
G1 X145.42 Y66.243 E2.74353
G1 X146.395 Y65.197 E2.77043
G1 X147.439 Y64.206 E2.79751
G1 X148.234 Y63.51 E2.81738
G1 X149.53 Y62.466 E2.84869
G1 X151.737 Y61.476 E2.89419
G1 X153.839 Y60.84 E2.9355
G1 X156.309 Y60.851 E2.98196
G1 X158.1 Y61.121 E3.01603
G1 X159.761 Y61.576 E3.04843
G1 X161.644 Y62.686 E3.08954
G1 X163.209 Y63.929 E3.12714
G1 X165.002 Y65.719 E3.1748
G1 X166.904 Y63.827 E3.22526
G1 X168.901 Y62.332 E3.27219
G1 X170.296 Y61.567 E3.30211
G1 X172.754 Y60.874 E3.35015
G1 X175.241 Y60.758 E3.39698
G1 X178.156 Y61.336 E3.45288
G1 X180.545 Y62.533 E3.50315
G1 X182.023 Y63.734 E3.53897
G1 X182.845 Y64.472 E3.55975
G1 X183.624 Y65.226 E3.58014
G1 X184.58 Y66.246 E3.60644
G1 X185.94 Y68.009 E3.64833
G1 X186.697 Y69.356 E3.67739
G1 X187.376 Y71.185 E3.71409
G1 X187.642 Y72.46 E3.73859
G1 X187.833 Y74.807 E3.78288
G1 X187.347 Y77.307 E3.83079
G1 X186.287 Y79.765 E3.88114
G1 X184.648 Y81.786 E3.93009
G1 X182.862 Y83.575 E3.97764
G1 X183.184 Y83.917 E3.98648
G1 X184.366 Y85.975 E4.03112
G1 X185.04 Y88.042 E4.07201
G1 X185.246 Y90.099 E4.1109
G1 X185.039 Y92.158 E4.14983
G1 X184.233 Y94.634 E4.19881
G1 X182.947 Y96.52 E4.24175
G1 X182.433 Y97.209 E4.25792
G1 X181.375 Y98.449 E4.28858
G1 X180.691 Y99.176 E4.30736
G1 X180.092 Y99.761 E4.3231
G1 X179.239 Y100.557 E4.34505
G1 X178.835 Y101.039 E4.35688
G1 X178.525 Y101.445 E4.36649
G1 X178.164 Y101.996 E4.37888
G1 X177.732 Y102.862 E4.39709
G1 X177.443 Y103.593 E4.41187
G1 X177.237 Y104.446 E4.42838
G1 X177.096 Y105.319 E4.44501
G1 X177.075 Y106.21 E4.46178
G1 X177.075 Y160.341 E5.48001
G1 X177.054 Y160.963 E5.49172
G1 X176.941 Y162.239 E5.51582
G1 X176.821 Y163.055 E5.53133
G1 X176.384 Y164.92 E5.56736
G1 X176.107 Y165.775 E5.58427
G1 X175.698 Y166.811 E5.60522
G0 F9000 X175.326 Y166.664
G1 F1800 X174.73 Y167.922 E5.6314
G1 X174.244 Y168.776 E5.64989
G1 X173.245 Y170.241 E5.68324
G1 X167.904 Y176.876 E5.84346
G1 X166.145 Y178.194 E5.88481
G1 X163.579 Y178.811 E5.93445
G1 X161.359 Y178.535 E5.97653
G1 X159.509 Y177.736 E6.01444
G1 X150.6 Y170.555 E6.22968
G1 X149.294 Y168.826 E6.27044
G1 X148.677 Y166.248 E6.32031
G1 X148.953 Y164.058 E6.36183
G1 X149.778 Y162.14 E6.4011
G1 X151.755 Y159.681 E6.46045
G1 X152.254 Y158.885 E6.47813
G1 X152.623 Y158.148 E6.49363
G1 X152.819 Y157.652 E6.50366
G1 X153.017 Y157.053 E6.51553
G1 X153.138 Y156.539 E6.52546
G1 X153.271 Y155.714 E6.54118
G1 X153.309 Y155.19 E6.55106
G1 X153.325 Y154.604 E6.56209
G1 X153.325 Y105.773 E7.48063
G1 X153.267 Y105.053 E7.49422
G1 X153.151 Y104.352 E7.50758
G1 X153.004 Y103.742 E7.51938
G1 X152.725 Y102.924 E7.53564
G1 X152.488 Y102.404 E7.54639
G1 X152.172 Y101.774 E7.55965
G1 X151.758 Y101.154 E7.57367
G1 X151.265 Y100.511 E7.58891
G1 X150.662 Y99.897 E7.6051
G1 X149.996 Y99.288 E7.62208
G1 X149.32 Y98.616 E7.64001
G1 X148.646 Y97.888 E7.65867
G1 X147.733 Y96.763 E7.68592
G1 X147.164 Y95.979 E7.70415
G1 X146.28 Y94.528 E7.73611
G1 X145.756 Y93.306 E7.76112
G1 X145.295 Y91.478 E7.79658
G1 X145.139 Y90.073 E7.82317
G1 X145.365 Y88.053 E7.8614
G1 X146.032 Y86.07 E7.90076
G1 X147.182 Y84.097 E7.94372
G1 X147.704 Y83.576 E7.95759
G1 X144.872 Y80.739 E8.03299
G1 X143.567 Y78.438 E8.08275
G1 X142.899 Y76.792 E8.11617
G1 X142.648 Y74.639 E8.15694
G1 X142.62 Y72.887 E8.1899
G1 X143.197 Y70.648 E8.23339
G1 X143.56 Y69.719 E8.25216
G1 X144.385 Y68.1 E8.28634
G1 X145.713 Y66.516 E8.32522
G1 X146.688 Y65.47 E8.35212
G1 X147.703 Y64.507 E8.37844
G1 X148.485 Y63.822 E8.39799
G1 X149.742 Y62.81 E8.42835
G1 X151.853 Y61.859 E8.4719
G1 X153.898 Y61.24 E8.51209
G1 X156.307 Y61.251 E8.55741
G1 X157.994 Y61.507 E8.5895
G1 X159.604 Y61.948 E8.6209
G1 X161.396 Y63 E8.65999
G1 X162.926 Y64.212 E8.69671
G1 X165.002 Y66.284 E8.75188
G1 X167.186 Y64.111 E8.80983
G1 X169.093 Y62.683 E8.85465
G1 X170.449 Y61.939 E8.88374
G1 X172.816 Y61.272 E8.93
G1 X175.214 Y61.16 E8.97516
G1 X178.023 Y61.717 E9.02902
G1 X180.33 Y62.873 E9.07756
G1 X181.756 Y64.032 E9.11213
G1 X182.567 Y64.76 E9.13263
G1 X183.332 Y65.5 E9.15265
G1 X184.288 Y66.52 E9.17895
G1 X185.591 Y68.205 E9.21901
G1 X186.348 Y69.552 E9.24808
G1 X186.984 Y71.267 E9.28249
G1 X187.25 Y72.542 E9.30699
G1 X187.43 Y74.785 E9.34931
G1 X186.962 Y77.191 E9.39542
G1 X185.943 Y79.554 E9.44383
G1 X184.365 Y81.503 E9.491
G1 X182.296 Y83.576 E9.54609
G1 X182.837 Y84.116 E9.56047
G1 X183.999 Y86.14 E9.60437
G1 X184.646 Y88.124 E9.64362
G1 X184.844 Y90.099 E9.68096
G1 X184.645 Y92.076 E9.71834
G1 X183.87 Y94.457 E9.76544
G1 X182.626 Y96.281 E9.80697
G1 X182.112 Y96.97 E9.82314
G1 X181.084 Y98.175 E9.85293
G1 X180.411 Y98.89 E9.8714
G1 X179.819 Y99.469 E9.88698
G1 X178.949 Y100.281 E9.90937
G1 X178.517 Y100.796 E9.92201
G1 X178.198 Y101.214 E9.9319
G1 X177.814 Y101.8 E9.94508
G1 X177.367 Y102.696 E9.96392
G1 X177.06 Y103.473 E9.97963
G1 X176.844 Y104.368 E9.99695
G1 X176.697 Y105.282 E10.01436
G1 X176.675 Y106.2 E10.03164
G1 X176.675 Y160.328 E11.04981
G1 X176.654 Y160.95 E11.06152
G1 X176.545 Y162.181 E11.08477
G1 X176.425 Y162.997 E11.10028
G1 X176.003 Y164.797 E11.13506
G1 X175.726 Y165.652 E11.15196
G1 X175.326 Y166.664 E11.17243
G0 F9000 X174.954 Y166.517
G1 F1800 X174.382 Y167.724 E11.19756
G1 X173.896 Y168.578 E11.21604
G1 X172.933 Y169.99 E11.24819
G1 X167.623 Y176.587 E11.40749
G1 X165.972 Y177.824 E11.4463
G1 X163.556 Y178.405 E11.49304
G1 X161.465 Y178.145 E11.53267
G1 X159.717 Y177.39 E11.56849
G1 X150.89 Y170.275 E11.78176
G1 X149.664 Y168.652 E11.82002
G1 X149.083 Y166.226 E11.86694
G1 X149.343 Y164.162 E11.90607
G1 X150.122 Y162.351 E11.94316
G1 X152.081 Y159.914 E12.00197
G1 X152.603 Y159.082 E12.02045
G1 X152.987 Y158.314 E12.0366
G1 X153.197 Y157.783 E12.04734
G1 X153.4 Y157.171 E12.05947
G1 X153.532 Y156.608 E12.07035
G1 X153.669 Y155.762 E12.08647
G1 X153.709 Y155.208 E12.09692
G1 X153.725 Y154.615 E12.10808
G1 X153.725 Y105.753 E13.0272
G1 X153.665 Y105.008 E13.04126
G1 X153.544 Y104.274 E13.05525
G1 X153.388 Y103.628 E13.06775
G1 X153.098 Y102.779 E13.08463
G1 X152.846 Y102.225 E13.09608
G1 X152.519 Y101.573 E13.1098
G1 X152.085 Y100.923 E13.1245
G1 X151.566 Y100.247 E13.14053
G1 X150.948 Y99.617 E13.15713
G1 X150.278 Y99.004 E13.17421
G1 X149.614 Y98.344 E13.19182
G1 X148.94 Y97.616 E13.21048
G1 X148.057 Y96.528 E13.23684
G1 X147.488 Y95.744 E13.25506
G1 X146.648 Y94.37 E13.28536
G1 X146.124 Y93.148 E13.31037
G1 X145.693 Y91.434 E13.34361
G1 X145.542 Y90.073 E13.36937
G1 X145.758 Y88.138 E13.406
G1 X146.398 Y86.237 E13.44373
G1 X147.503 Y84.341 E13.48501
G1 X148.27 Y83.576 E13.50538
G1 X145.194 Y80.495 E13.58728
G1 X143.938 Y78.287 E13.63506
G1 X143.289 Y76.689 E13.66751
G1 X143.048 Y74.633 E13.70645
G1 X143.021 Y72.932 E13.73845
G1 X143.57 Y70.794 E13.77997
G1 X143.933 Y69.865 E13.79873
G1 X144.721 Y68.321 E13.83134
G1 X146.006 Y66.789 E13.86895
G1 X146.981 Y65.743 E13.89585
G1 X147.966 Y64.808 E13.92139
G1 X148.736 Y64.134 E13.94064
G1 X149.956 Y63.152 E13.9701
G1 X151.969 Y62.242 E14.01166
G1 X153.957 Y61.64 E14.05073
G1 X156.305 Y61.651 E14.0949
G1 X157.888 Y61.893 E14.12502
G1 X159.447 Y62.32 E14.15543
G1 X161.193 Y63.345 E14.19351
G1 X162.643 Y64.495 E14.22832
G1 X165.001 Y66.849 E14.291
G1 X167.468 Y64.395 E14.35645
G1 X169.285 Y63.034 E14.39916
G1 X170.601 Y62.312 E14.42739
G1 X172.879 Y61.67 E14.47191
G1 X175.187 Y61.562 E14.51537
G1 X177.89 Y62.098 E14.56721
G1 X180.111 Y63.211 E14.61394
G1 X181.489 Y64.33 E14.64733
G1 X182.289 Y65.048 E14.66755
G1 X183.04 Y65.774 E14.6872
G1 X183.996 Y66.794 E14.7135
G1 X185.242 Y68.401 E14.75175
G1 X185.999 Y69.748 E14.78081
G1 X186.592 Y71.349 E14.81293
G1 X186.858 Y72.624 E14.83743
G1 X187.027 Y74.762 E14.87777
G1 X186.577 Y77.075 E14.92209
G1 X185.598 Y79.345 E14.9686
G1 X184.082 Y81.22 E15.01395
G1 X181.73 Y83.576 E15.07657
G1 X182.516 Y84.36 E15.09746
G1 X183.632 Y86.305 E15.13964
G1 X184.252 Y88.206 E15.17725
G1 X184.442 Y90.099 E15.21304
G1 X184.251 Y91.994 E15.24886
G1 X183.507 Y94.28 E15.29408
G1 X182.305 Y96.042 E15.33421
G1 X181.791 Y96.731 E15.35038
G1 X180.793 Y97.901 E15.3793
G1 X180.132 Y98.604 E15.39745
G1 X179.546 Y99.176 E15.41286
G1 X178.658 Y100.004 E15.4357
G1 X178.21 Y100.539 E15.44882
G1 X177.871 Y100.983 E15.45933
G1 X177.582 Y101.424 E15.46925
G1 X177.329 Y101.876 E15.47899
G1 X177.002 Y102.53 E15.49275
G1 X176.764 Y103.134 E15.50496
G1 X176.614 Y103.616 E15.51445
G1 X176.451 Y104.29 E15.5275
G1 X176.329 Y105.053 E15.54203
G1 X176.29 Y105.567 E15.55173
G1 X176.275 Y106.19 E15.56345
G1 X176.275 Y160.315 E16.58157
G1 X176.254 Y160.937 E16.59328
G1 X176.149 Y162.123 E16.61568
G1 X176.029 Y162.939 E16.63119
G1 X175.622 Y164.674 E16.66471
G1 X175.345 Y165.529 E16.68162
G1 X174.954 Y166.517 E16.70161
G0 F9000 X174.592 Y166.346
G1 F1800 X174.034 Y167.526 E16.72616
G1 X173.548 Y168.38 E16.74464
G1 X172.621 Y169.739 E16.77559
G1 X167.342 Y176.298 E16.93396
G1 X165.799 Y177.454 E16.97023
G1 X163.533 Y177.999 E17.01407
G1 X161.571 Y177.755 E17.05126
G1 X159.925 Y177.044 E17.08499
G1 X151.18 Y169.995 E17.29627
G1 X150.034 Y168.478 E17.33204
G1 X149.489 Y166.204 E17.37602
G1 X149.733 Y164.266 E17.41277
G1 X150.466 Y162.562 E17.44766
G1 X152.407 Y160.147 E17.50594
G1 X152.952 Y159.279 E17.52522
G1 X153.351 Y158.48 E17.54202
G1 X153.575 Y157.914 E17.55347
G1 X153.783 Y157.287 E17.56589
G1 X153.926 Y156.68 E17.57763
G1 X154.067 Y155.81 E17.5942
G1 X154.109 Y155.225 E17.60524
G1 X154.125 Y154.626 E17.61651
G1 X154.125 Y105.733 E18.53621
G1 X154.063 Y104.963 E18.55074
G1 X153.937 Y104.196 E18.56536
G1 X153.772 Y103.514 E18.57856
G1 X153.473 Y102.638 E18.59598
G1 X153.204 Y102.046 E18.60821
G1 X152.866 Y101.372 E18.62239
G1 X152.412 Y100.692 E18.63777
G1 X152.067 Y100.243 E18.64842
G1 X151.735 Y99.848 E18.65813
G1 X151.234 Y99.337 E18.67159
G1 X150.56 Y98.721 E18.68876
G1 X149.908 Y98.072 E18.70607
G1 X149.234 Y97.344 E18.72473
G1 X148.381 Y96.293 E18.75019
G1 X147.812 Y95.509 E18.76842
G1 X147.016 Y94.212 E18.79704
G1 X146.492 Y92.99 E18.82205
G1 X146.091 Y91.39 E18.85308
G1 X145.945 Y90.073 E18.878
G1 X146.152 Y88.222 E18.91304
G1 X146.762 Y86.407 E18.94906
G1 X147.824 Y84.586 E18.98871
G1 X148.836 Y83.576 E19.01561
G1 X145.513 Y80.248 E19.10407
G1 X144.309 Y78.137 E19.14979
G1 X143.68 Y76.587 E19.18125
G1 X143.448 Y74.627 E19.21838
G1 X143.422 Y72.981 E19.24934
G1 X143.943 Y70.94 E19.28897
G1 X144.306 Y70.011 E19.30773
G1 X145.057 Y68.542 E19.33876
G1 X146.299 Y67.062 E19.37511
G1 X147.274 Y66.016 E19.402
G1 X148.23 Y65.109 E19.42679
G1 X148.987 Y64.446 E19.44572
G1 X150.17 Y63.494 E19.47428
G1 X152.085 Y62.625 E19.51384
G1 X154.016 Y62.04 E19.5518
G1 X156.245 Y62.047 E19.59372
G1 X157.782 Y62.279 E19.62296
G1 X159.29 Y62.692 E19.65238
G1 X160.99 Y63.69 E19.68946
G1 X162.36 Y64.778 E19.72236
G1 X165.001 Y67.414 E19.79255
G1 X167.75 Y64.679 E19.8655
G1 X169.477 Y63.385 E19.90609
G1 X170.753 Y62.685 E19.93347
G1 X172.942 Y62.068 E19.97625
G1 X175.16 Y61.964 E20.01802
G1 X177.757 Y62.479 E20.06782
G1 X179.896 Y63.551 E20.11282
G1 X181.222 Y64.628 E20.14496
G1 X182.011 Y65.335 E20.16489
G1 X182.748 Y66.048 E20.18418
G1 X183.68 Y67.04 E20.20978
G1 X184.893 Y68.597 E20.24691
G1 X185.65 Y69.944 E20.27597
G1 X186.2 Y71.431 E20.30579
G1 X186.466 Y72.706 E20.33029
G1 X186.624 Y74.738 E20.36863
G1 X186.191 Y76.96 E20.41122
G1 X185.253 Y79.136 E20.45579
G1 X183.799 Y80.937 E20.49933
G1 X181.164 Y83.576 E20.56948
G1 X182.196 Y84.606 E20.59691
G1 X183.265 Y86.469 E20.63731
G1 X183.858 Y88.288 E20.6733
G1 X184.04 Y90.099 E20.70754
G1 X183.857 Y91.912 E20.74181
G1 X183.145 Y94.1 E20.78509
G1 X181.984 Y95.803 E20.82386
G1 X181.47 Y96.492 E20.84003
G1 X180.502 Y97.627 E20.86809
G1 X179.852 Y98.318 E20.88594
G1 X179.273 Y98.884 E20.90117
G1 X178.364 Y99.732 E20.92455
G1 X177.903 Y100.282 E20.93805
G1 X177.553 Y100.74 E20.9489
G1 X177.233 Y101.228 E20.95987
G1 X176.975 Y101.688 E20.96979
G1 X176.637 Y102.364 E20.98401
G1 X176.387 Y102.999 E20.99685
G1 X176.225 Y103.522 E21.00715
G1 X176.058 Y104.214 E21.02054
G1 X175.931 Y105.008 E21.03566
G1 X175.89 Y105.547 E21.04583
G1 X175.875 Y106.181 E21.05776
G1 X175.875 Y160.302 E22.07581
G1 X175.854 Y160.924 E22.08751
G1 X175.753 Y162.065 E22.10906
G1 X175.639 Y162.848 E22.12394
G1 X175.241 Y164.551 E22.15684
G1 X174.964 Y165.406 E22.17375
G1 X174.592 Y166.346 E22.19276
G0 F9000 X174.23 Y166.175
G1 F1800 X173.686 Y167.328 E22.21675
G1 X173.2 Y168.182 E22.23523
G1 X172.309 Y169.488 E22.26497
G1 X167.061 Y176.009 E22.42242
G1 X165.626 Y177.084 E22.45615
G1 X163.51 Y177.593 E22.49709
G1 X161.677 Y177.365 E22.53183
G1 X160.133 Y176.698 E22.56347
G1 X151.47 Y169.715 E22.77278
G1 X150.404 Y168.304 E22.80604
G1 X149.895 Y166.182 E22.84709
G1 X150.123 Y164.37 E22.88144
G1 X150.81 Y162.773 E22.91414
G1 X152.616 Y160.527 E22.96836
G1 X152.917 Y160.088 E22.97837
G1 X153.301 Y159.476 E22.99196
G1 X153.715 Y158.646 E23.00941
G1 X153.953 Y158.045 E23.02157
G1 X154.166 Y157.405 E23.03425
G1 X154.32 Y156.749 E23.04693
G1 X154.465 Y155.858 E23.06391
G1 X154.509 Y155.241 E23.07555
G1 X154.525 Y154.637 E23.08691
G1 X154.525 Y106.023 E24.00137
G1 X154.509 Y105.515 E24.01093
G1 X154.461 Y104.918 E24.02219
G1 X154.33 Y104.118 E24.03744
G1 X154.156 Y103.4 E24.05134
G1 X153.848 Y102.497 E24.06929
G1 X153.562 Y101.867 E24.0823
G1 X153.213 Y101.171 E24.09695
G1 X152.739 Y100.461 E24.11301
G1 X152.384 Y99.999 E24.12397
G1 X152.032 Y99.58 E24.13426
G1 X151.504 Y99.042 E24.14844
G1 X150.842 Y98.437 E24.16531
G1 X150.202 Y97.8 E24.18229
G1 X149.528 Y97.072 E24.20096
G1 X148.692 Y96.041 E24.22592
G1 X148.152 Y95.299 E24.24319
G1 X147.384 Y94.054 E24.2707
G1 X146.86 Y92.832 E24.29571
G1 X146.489 Y91.346 E24.32452
G1 X146.348 Y90.073 E24.34862
G1 X146.545 Y88.307 E24.38204
G1 X147.128 Y86.574 E24.41644
