;START_OF_HEADER
;HEADER_VERSION:0.1
;FLAVOR:Griffin
;GENERATOR.NAME:Cura_SteamEngine
;GENERATOR.VERSION:5.6.0
;GENERATOR.BUILD_DATE:2023-11-28
;TARGET_MACHINE.NAME:Ultimaker S5
;EXTRUDER_TRAIN.0.INITIAL_TEMPERATURE:240
;EXTRUDER_TRAIN.0.MATERIAL.VOLUME_USED:2655
;EXTRUDER_TRAIN.0.MATERIAL.GUID:1cbfaeb3-1906-4b26-b2e7-6f777a8c197a
;EXTRUDER_TRAIN.0.NOZZLE.DIAMETER:0.4
;EXTRUDER_TRAIN.0.NOZZLE.NAME:AA 0.4
;BUILD_PLATE.INITIAL_TEMPERATURE:85
;BUILD_VOLUME.TEMPERATURE:37
;PRINT.TIME:887
;PRINT.GROUPS:1
;PRINT.SIZE.MIN.X:128.361
;PRINT.SIZE.MIN.Y:101.653
;PRINT.SIZE.MIN.Z:0.3
;PRINT.SIZE.MAX.X:201.619
;PRINT.SIZE.MAX.Y:138.457
;PRINT.SIZE.MAX.Z:3.9
;SLICE_UUID:a0d62840-b050-45bd-b787-39d858860e92
;END_OF_HEADER
;Generated with Cura_SteamEngine 5.6.0
T0
M82 ;absolute extrusion mode

G92 E0
M190 S85
M109 S240
G280 S1
G0 Z20.001
G1 F2700 E-8
;LAYER_COUNT:13
;LAYER:0
M106 S51
M204 S1000
M205 X20 Y20
G0 F9000 X199.6 Y131.167 Z0.3
;TYPE:SKIRT
G1 F900 E0
G1 F1800 X196.288 Y135.218 E0.09843
G1 X194.9 Y136.546 E0.13456
G1 X192.333 Y137.851 E0.18873
G1 X189.502 Y138.457 E0.24319
G1 X186.821 Y138.159 E0.29393
G1 X184.548 Y137.344 E0.33935
G1 X182.818 Y136.221 E0.37815
G1 X171.738 Y127.296 E0.64578
G1 X171.029 Y126.85 E0.66153
G1 X170.384 Y126.525 E0.67512
G1 X169.816 Y126.287 E0.6867
G1 X168.941 Y126.013 E0.70395
G1 X168.09 Y125.854 E0.72024
G1 X167.07 Y125.803 E0.73945
G1 X162.813 Y125.804 E0.81952
G1 X162.152 Y125.835 E0.83197
G1 X161.337 Y125.954 E0.84746
G1 X160.44 Y126.19 E0.86491
G1 X159.822 Y126.437 E0.87743
G1 X159.301 Y126.672 E0.88818
G1 X158.826 Y126.927 E0.89832
G1 X158.275 Y127.296 E0.9108
G1 X157.823 Y127.648 E0.92157
G1 X146.684 Y136.574 E1.19008
G1 X145.386 Y137.374 E1.21876
G1 X143.139 Y138.163 E1.26356
G1 X140.737 Y138.412 E1.30898
G1 X137.938 Y137.944 E1.36236
G1 X135.863 Y136.994 E1.40529
G1 X133.925 Y135.574 E1.45048
G1 X130.307 Y131.041 E1.55958
G1 X129.369 Y129.539 E1.59289
G1 X128.584 Y127.308 E1.63738
G1 X128.361 Y125.117 E1.67881
G1 X128.616 Y122.865 E1.72144
G1 X129.475 Y120.495 E1.76886
G1 X130.851 Y118.586 E1.81312
G1 X131.548 Y117.859 E1.83207
G1 X147.429 Y105.017 E2.21625
G1 X148.261 Y104.434 E2.23536
G1 X149.447 Y103.729 E2.26131
G1 X150.178 Y103.352 E2.27678
G1 X151.251 Y102.883 E2.29881
G1 X152.134 Y102.55 E2.31656
G1 X153.048 Y102.267 E2.33456
G1 X154.51 Y101.933 E2.36277
G1 X155.442 Y101.783 E2.38053
G1 X156.006 Y101.72 E2.3912
G1 X157.34 Y101.653 E2.41633
G1 X173.152 Y101.672 E2.71376
G1 X174.111 Y101.737 E2.73184
G1 X175.048 Y101.861 E2.74962
G1 X175.995 Y102.033 E2.76772
G1 X176.914 Y102.257 E2.78552
G1 X178.232 Y102.678 E2.81154
G1 X179.044 Y102.996 E2.82795
G1 X179.922 Y103.398 E2.84611
G1 X180.841 Y103.888 E2.8657
G1 X181.878 Y104.523 E2.88858
G1 X182.822 Y105.204 E2.91047
G1 X198.461 Y117.874 E3.28908
G1 X199.828 Y119.321 E3.32652
G1 X201.103 Y121.834 E3.37953
G1 X201.619 Y124.272 E3.4264
G1 X201.462 Y127.223 E3.48199
G1 X200.573 Y129.693 E3.53137
G1 X199.6 Y131.167 E3.5646
G0 F9000 X199.29 Y130.914
G1 F1800 X196.011 Y134.929 E3.66211
G1 X194.666 Y136.216 E3.69712
G1 X192.197 Y137.471 E3.74922
G1 X189.483 Y138.052 E3.80143
G1 X186.908 Y137.766 E3.85017
G1 X184.729 Y136.984 E3.89371
G1 X183.069 Y135.909 E3.93091
G1 X172.315 Y127.247 E4.19066
G1 X171.903 Y126.927 E4.20048
G1 X171.231 Y126.504 E4.21541
G1 X170.546 Y126.159 E4.22984
G1 X169.952 Y125.91 E4.24196
G1 X169.042 Y125.625 E4.25989
G1 X168.133 Y125.455 E4.27729
G1 X167.09 Y125.403 E4.29693
G1 X162.794 Y125.404 E4.37774
G1 X162.116 Y125.436 E4.39051
G1 X161.257 Y125.561 E4.40684
G1 X160.317 Y125.808 E4.42512
G1 X159.658 Y126.072 E4.43847
G1 X159.132 Y126.309 E4.44933
G1 X158.616 Y126.586 E4.46034
G1 X158.034 Y126.976 E4.47352
G1 X157.577 Y127.332 E4.48442
G1 X146.474 Y136.233 E4.7521
G1 X145.21 Y137.012 E4.78003
G1 X143.052 Y137.77 E4.82305
G1 X140.751 Y138.008 E4.86657
G1 X138.056 Y137.558 E4.91796
G1 X136.065 Y136.646 E4.95916
G1 X134.206 Y135.284 E5.00251
G1 X130.62 Y130.791 E5.11064
G1 X129.731 Y129.363 E5.14228
G1 X128.977 Y127.221 E5.185
G1 X128.763 Y125.117 E5.22478
G1 X129.008 Y122.958 E5.26565
G1 X129.832 Y120.684 E5.31115
G1 X131.141 Y118.862 E5.35335
G1 X131.8 Y118.17 E5.37133
G1 X147.659 Y105.345 E5.75498
G1 X148.491 Y104.762 E5.77409
G1 X149.63 Y104.085 E5.79902
G1 X150.361 Y103.708 E5.81449
G1 X151.392 Y103.257 E5.83566
G1 X152.253 Y102.932 E5.85297
G1 X153.137 Y102.657 E5.87038
G1 X154.574 Y102.328 E5.89811
G1 X155.486 Y102.181 E5.91549
G1 X156.05 Y102.118 E5.92616
G1 X157.34 Y102.053 E5.95046
G1 X173.125 Y102.071 E6.24739
G1 X174.084 Y102.136 E6.26547
G1 X174.977 Y102.255 E6.28241
G1 X175.9 Y102.422 E6.30006
G1 X176.819 Y102.646 E6.31785
G1 X178.086 Y103.051 E6.34287
G1 X178.877 Y103.36 E6.35885
G1 X179.755 Y103.762 E6.37701
G1 X180.632 Y104.229 E6.3957
G1 X181.644 Y104.848 E6.41801
G1 X182.57 Y105.515 E6.43948
G1 X198.17 Y118.149 E6.81709
G1 X199.497 Y119.554 E6.85344
G1 X200.723 Y121.97 E6.90441
G1 X201.217 Y124.304 E6.94928
G1 X201.066 Y127.143 E7.00276
G1 X200.214 Y129.511 E7.0501
G1 X199.29 Y130.914 E7.0817
G0 F9000 X198.98 Y130.661
G1 F1800 X195.734 Y134.64 E7.17829
G1 X194.432 Y135.886 E7.21219
G1 X192.061 Y137.091 E7.26222
G1 X189.464 Y137.647 E7.31218
G1 X186.995 Y137.373 E7.35891
G1 X184.909 Y136.624 E7.4006
G1 X183.32 Y135.597 E7.43619
G1 X172.566 Y126.935 E7.69594
G1 X172.134 Y126.599 E7.70623
G1 X171.433 Y126.158 E7.72181
G1 X170.708 Y125.793 E7.73708
G1 X170.088 Y125.533 E7.74973
G1 X169.143 Y125.237 E7.76835
G1 X168.176 Y125.056 E7.78686
G1 X167.11 Y125.003 E7.80694
G1 X162.775 Y125.004 E7.88848
G1 X162.08 Y125.037 E7.90157
G1 X161.18 Y125.168 E7.91868
G1 X160.196 Y125.426 E7.93781
G1 X159.493 Y125.707 E7.95205
G1 X158.957 Y125.949 E7.96312
G1 X158.414 Y126.24 E7.9747
G1 X157.793 Y126.656 E7.98876
G1 X157.331 Y127.016 E7.99978
G1 X146.264 Y135.892 E8.26664
G1 X145.034 Y136.65 E8.29382
G1 X142.965 Y137.377 E8.33507
G1 X140.765 Y137.604 E8.37667
G1 X138.173 Y137.171 E8.42611
G1 X136.268 Y136.299 E8.46552
G1 X134.487 Y134.994 E8.50705
G1 X130.933 Y130.541 E8.61422
G1 X130.093 Y129.187 E8.64419
G1 X129.37 Y127.134 E8.68513
G1 X129.165 Y125.117 E8.72327
G1 X129.4 Y123.051 E8.76238
G1 X130.189 Y120.872 E8.80598
G1 X131.466 Y119.095 E8.84714
G1 X132.052 Y118.481 E8.8631
G1 X147.889 Y105.673 E9.24624
G1 X148.721 Y105.09 E9.26535
G1 X149.813 Y104.441 E9.28924
G1 X150.544 Y104.064 E9.30471
G1 X151.533 Y103.631 E9.32502
G1 X152.372 Y103.314 E9.34189
G1 X153.227 Y103.047 E9.35874
G1 X154.638 Y102.723 E9.38598
G1 X155.53 Y102.579 E9.40297
G1 X156.094 Y102.516 E9.41365
G1 X157.34 Y102.453 E9.43711
G1 X173.098 Y102.47 E9.73353
G1 X174.031 Y102.533 E9.75112
G1 X174.906 Y102.649 E9.76773
G1 X175.805 Y102.811 E9.78491
G1 X176.724 Y103.035 E9.8027
G1 X177.964 Y103.432 E9.82719
G1 X178.71 Y103.724 E9.84226
G1 X179.588 Y104.126 E9.86043
G1 X180.423 Y104.57 E9.87822
G1 X181.435 Y105.189 E9.90053
G1 X182.318 Y105.826 E9.92101
G1 X197.879 Y118.424 E10.29762
G1 X199.166 Y119.787 E10.33289
G1 X200.343 Y122.106 E10.38181
G1 X200.815 Y124.336 E10.42468
G1 X200.67 Y127.063 E10.47605
G1 X199.855 Y129.329 E10.52135
G1 X198.98 Y130.661 E10.55133
G0 F9000 X198.67 Y130.408
G1 F1800 X195.457 Y134.351 E10.647
G1 X194.198 Y135.556 E10.67979
G1 X191.925 Y136.711 E10.72774
G1 X189.445 Y137.242 E10.77545
G1 X187.082 Y136.98 E10.82017
G1 X185.089 Y136.264 E10.86001
G1 X183.571 Y135.285 E10.89399
G1 X172.817 Y126.623 E11.15374
G1 X172.36 Y126.268 E11.16462
G1 X171.635 Y125.812 E11.18073
G1 X170.875 Y125.429 E11.19674
G1 X170.223 Y125.156 E11.21004
G1 X169.242 Y124.849 E11.22937
G1 X168.219 Y124.657 E11.24895
G1 X167.13 Y124.603 E11.26946
G1 X162.756 Y124.604 E11.35174
G1 X162.044 Y124.638 E11.36515
G1 X161.103 Y124.775 E11.38303
G1 X160.075 Y125.044 E11.40302
G1 X159.329 Y125.342 E11.41813
G1 X158.788 Y125.586 E11.4293
G1 X158.202 Y125.901 E11.44181
G1 X157.556 Y126.333 E11.45643
G1 X157.085 Y126.7 E11.46766
G1 X146.054 Y135.551 E11.7337
G1 X144.858 Y136.288 E11.76012
G1 X142.878 Y136.984 E11.7996
G1 X140.779 Y137.2 E11.8393
G1 X138.29 Y136.784 E11.88676
G1 X136.471 Y135.952 E11.92439
G1 X134.768 Y134.704 E11.96411
G1 X131.246 Y130.291 E12.07031
G1 X130.456 Y129.014 E12.09856
G1 X129.763 Y127.047 E12.13779
G1 X129.567 Y125.117 E12.17428
G1 X129.792 Y123.144 E12.21163
G1 X130.546 Y121.06 E12.25332
G1 X131.757 Y119.37 E12.29243
G1 X132.304 Y118.792 E12.3074
G1 X148.141 Y105.984 E12.69053
G1 X148.925 Y105.434 E12.70855
G1 X149.996 Y104.797 E12.73199
G1 X150.727 Y104.42 E12.74746
G1 X151.675 Y104.005 E12.76693
G1 X152.492 Y103.696 E12.78336
G1 X153.317 Y103.437 E12.79962
G1 X154.728 Y103.113 E12.82685
G1 X155.574 Y102.977 E12.84297
G1 X156.138 Y102.914 E12.85365
G1 X157.34 Y102.853 E12.87629
G1 X173.071 Y102.869 E13.1722
G1 X174.004 Y102.932 E13.18979
G1 X174.835 Y103.043 E13.20556
G1 X175.71 Y103.2 E13.22228
G1 X176.629 Y103.424 E13.24007
G1 X177.842 Y103.813 E13.26403
G1 X178.543 Y104.088 E13.2782
G1 X179.421 Y104.49 E13.29636
G1 X180.235 Y104.923 E13.31371
G1 X181.201 Y105.513 E13.335
G1 X182.066 Y106.137 E13.35506
G1 X197.627 Y118.735 E13.73167
G1 X198.834 Y120.018 E13.76481
G1 X199.963 Y122.242 E13.81173
G1 X200.413 Y124.368 E13.8526
G1 X200.274 Y126.983 E13.90186
G1 X199.495 Y129.15 E13.94518
G1 X198.67 Y130.408 E13.97348
G0 F9000 X198.36 Y130.155
G1 F1800 X195.18 Y134.062 E14.06824
G1 X193.964 Y135.226 E14.0999
G1 X191.789 Y136.331 E14.14579
G1 X189.426 Y136.837 E14.19125
G1 X187.169 Y136.587 E14.23396
G1 X185.267 Y135.903 E14.27198
G1 X183.822 Y134.973 E14.30431
G1 X173.068 Y126.311 E14.56406
G1 X172.591 Y125.94 E14.57542
G1 X171.837 Y125.466 E14.59218
G1 X171.037 Y125.063 E14.60903
G1 X170.359 Y124.779 E14.62285
G1 X169.622 Y124.548 E14.63738
G1 X169.138 Y124.422 E14.64679
G1 X168.581 Y124.318 E14.65745
G1 X168.048 Y124.247 E14.66756
G1 X167.15 Y124.203 E14.68447
G1 X162.737 Y124.204 E14.76749
G1 X162.009 Y124.239 E14.7812
G1 X161.024 Y124.382 E14.79992
G1 X159.954 Y124.662 E14.82072
G1 X159.165 Y124.977 E14.8367
G1 X158.613 Y125.226 E14.84809
G1 X157.994 Y125.559 E14.86132
G1 X157.319 Y126.01 E14.87659
G1 X156.839 Y126.384 E14.88803
G1 X145.844 Y135.21 E15.15325
G1 X144.682 Y135.926 E15.17892
G1 X142.791 Y136.591 E15.21663
G1 X140.793 Y136.796 E15.25441
G1 X138.407 Y136.397 E15.29991
G1 X136.674 Y135.605 E15.33576
G1 X135.049 Y134.414 E15.37365
G1 X131.559 Y130.041 E15.4789
G1 X130.819 Y128.841 E15.50542
G1 X130.156 Y126.96 E15.54293
G1 X129.969 Y125.117 E15.57778
G1 X130.184 Y123.237 E15.61337
G1 X130.903 Y121.248 E15.65316
G1 X132.049 Y119.644 E15.69024
G1 X132.556 Y119.103 E15.70419
G1 X148.393 Y106.295 E16.08732
G1 X149.154 Y105.762 E16.1048
G1 X150.179 Y105.153 E16.12722
G1 X150.91 Y104.776 E16.14269
G1 X151.816 Y104.379 E16.1613
G1 X152.612 Y104.078 E16.17731
G1 X153.437 Y103.819 E16.19357
G1 X154.792 Y103.508 E16.21973
G1 X155.618 Y103.375 E16.23546
G1 X156.182 Y103.312 E16.24614
G1 X157.34 Y103.253 E16.26795
G1 X173.044 Y103.268 E16.56335
G1 X173.951 Y103.329 E16.58045
G1 X174.765 Y103.437 E16.5959
G1 X175.615 Y103.589 E16.61214
G1 X176.534 Y103.813 E16.62993
G1 X177.696 Y104.186 E16.65289
G1 X178.376 Y104.452 E16.66662
G1 X179.254 Y104.854 E16.68479
G1 X180.027 Y105.265 E16.70126
G1 X180.967 Y105.838 E16.72196
G1 X181.814 Y106.448 E16.7416
G1 X197.375 Y119.046 E17.11821
G1 X198.502 Y120.249 E17.14922
G1 X199.583 Y122.378 E17.19413
G1 X200.011 Y124.4 E17.23301
G1 X199.878 Y126.903 E17.28016
G1 X199.136 Y128.967 E17.32142
G1 X198.36 Y130.155 E17.34811
G0 F9000 X198.025 Y129.936
G1 F1800 X194.903 Y133.773 E17.44116
G1 X193.73 Y134.896 E17.47171
G1 X191.653 Y135.951 E17.51553
G1 X189.407 Y136.432 E17.55873
G1 X187.256 Y136.194 E17.59944
G1 X185.448 Y135.544 E17.63558
G1 X184.073 Y134.661 E17.66632
G1 X173.319 Y125.999 E17.92607
G1 X172.817 Y125.609 E17.93803
G1 X172.039 Y125.12 E17.95531
G1 X171.199 Y124.697 E17.973
G1 X170.495 Y124.402 E17.98736
G1 X169.742 Y124.166 E18.0022
G1 X169.228 Y124.032 E18.0122
G1 X168.648 Y123.924 E18.02329
G1 X168.074 Y123.847 E18.03419
G1 X167.169 Y123.803 E18.05123
G1 X162.718 Y123.804 E18.13496
G1 X161.974 Y123.84 E18.14897
G1 X161.256 Y123.944 E18.16262
G1 X160.754 Y124.039 E18.17223
G1 X159.826 Y124.282 E18.19027
G1 X159.004 Y124.61 E18.20692
G1 X158.448 Y124.861 E18.21839
G1 X157.784 Y125.218 E18.23257
G1 X157.079 Y125.69 E18.24853
G1 X156.593 Y126.068 E18.26012
G1 X145.634 Y134.869 E18.52451
G1 X144.506 Y135.564 E18.54943
G1 X142.704 Y136.198 E18.58536
G1 X140.807 Y136.392 E18.62123
G1 X138.524 Y136.01 E18.66477
G1 X136.877 Y135.258 E18.69883
G1 X135.33 Y134.124 E18.73491
G1 X131.872 Y129.791 E18.83919
G1 X131.181 Y128.667 E18.86401
G1 X130.549 Y126.873 E18.89979
G1 X130.371 Y125.118 E18.93297
G1 X130.576 Y123.33 E18.96683
G1 X131.26 Y121.437 E19.00469
G1 X132.341 Y119.918 E19.03976
G1 X132.848 Y119.377 E19.0537
G1 X148.622 Y106.623 E19.43528
G1 X149.383 Y106.09 E19.45275
G1 X150.362 Y105.509 E19.47417
G1 X151.093 Y105.132 E19.48964
G1 X151.957 Y104.753 E19.50739
G1 X152.732 Y104.46 E19.52297
G1 X153.557 Y104.201 E19.53924
G1 X154.856 Y103.903 E19.56431
G1 X155.662 Y103.773 E19.57967
G1 X156.226 Y103.71 E19.59034
G1 X157.34 Y103.653 E19.61132
G1 X173.017 Y103.667 E19.90622
G1 X173.899 Y103.726 E19.92284
G1 X174.695 Y103.831 E19.93795
G1 X175.52 Y103.978 E19.95371
G1 X176.439 Y104.202 E19.9715
G1 X177.573 Y104.567 E19.99391
G1 X178.209 Y104.816 E20.00676
G1 X179.087 Y105.218 E20.02492
G1 X179.819 Y105.607 E20.04052
G1 X180.759 Y106.18 E20.06123
G1 X181.562 Y106.759 E20.07985
G1 X197.123 Y119.357 E20.45646
G1 X198.17 Y120.479 E20.48533
G1 X199.203 Y122.514 E20.52826
G1 X199.609 Y124.432 E20.56513
G1 X199.482 Y126.823 E20.61017
G1 X198.777 Y128.785 E20.64939
G1 X198.025 Y129.936 E20.67525
G0 F9000 X197.69 Y129.717
G1 F1800 X194.626 Y133.484 E20.76659
G1 X193.496 Y134.566 E20.79602
G1 X191.517 Y135.571 E20.83777
G1 X189.388 Y136.027 E20.87873
G1 X187.343 Y135.801 E20.91743
G1 X185.629 Y135.185 E20.95169
G1 X184.324 Y134.349 E20.98084
G1 X173.57 Y125.687 E21.24059
G1 X173.048 Y125.281 E21.25303
G1 X172.241 Y124.774 E21.27096
G1 X171.361 Y124.331 E21.28949
G1 X170.631 Y124.025 E21.30438
G1 X169.862 Y123.784 E21.31954
G1 X169.318 Y123.642 E21.33012
G1 X168.715 Y123.53 E21.34165
G1 X168.1 Y123.447 E21.35333
G1 X167.188 Y123.403 E21.3705
G1 X162.698 Y123.404 E21.45496
G1 X161.94 Y123.441 E21.46924
G1 X161.19 Y123.549 E21.48349
G1 X160.668 Y123.648 E21.49348
G1 X159.698 Y123.902 E21.51234
G1 X158.856 Y124.238 E21.5294
G1 X158.273 Y124.501 E21.54143
G1 X157.578 Y124.875 E21.55627
G1 X156.846 Y125.365 E21.57284
G1 X156.342 Y125.756 E21.58484
G1 X145.424 Y134.528 E21.84829
G1 X144.33 Y135.202 E21.87246
G1 X142.617 Y135.805 E21.90662
G1 X140.821 Y135.988 E21.94058
G1 X138.641 Y135.623 E21.98216
G1 X137.083 Y134.912 E22.01437
G1 X135.61 Y133.832 E22.04873
G1 X132.185 Y129.541 E22.15201
G1 X131.544 Y128.493 E22.17512
G1 X130.942 Y126.786 E22.20916
G1 X130.773 Y125.118 E22.2407
G1 X130.967 Y123.423 E22.27279
G1 X131.618 Y121.623 E22.3088
G1 X132.633 Y120.192 E22.3418
G1 X133.14 Y119.651 E22.35575
G1 X148.851 Y106.951 E22.73576
G1 X149.612 Y106.418 E22.75324
G1 X150.545 Y105.865 E22.77364
G1 X151.276 Y105.488 E22.78911
G1 X152.098 Y105.127 E22.806
G1 X152.852 Y104.842 E22.82116
G1 X153.677 Y104.583 E22.83742
G1 X154.92 Y104.298 E22.86141
G1 X155.706 Y104.171 E22.87639
G1 X156.27 Y104.108 E22.88706
G1 X157.34 Y104.053 E22.90722
G1 X172.99 Y104.066 E23.2016
G1 X173.847 Y104.123 E23.21776
G1 X174.625 Y104.225 E23.23252
G1 X175.425 Y104.367 E23.2478
G1 X176.344 Y104.591 E23.2656
G1 X177.45 Y104.948 E23.28746
G1 X178.042 Y105.18 E23.29942
G1 X178.92 Y105.582 E23.31758
G1 X179.611 Y105.949 E23.3323
G1 X180.551 Y106.522 E23.35301
G1 X181.31 Y107.07 E23.37062
G1 X196.871 Y119.668 E23.74723
G1 X197.838 Y120.709 E23.77396
G1 X198.823 Y122.65 E23.8149
G1 X199.207 Y124.464 E23.84978
G1 X199.086 Y126.743 E23.89271
G1 X198.418 Y128.603 E23.92988
G1 X197.69 Y129.717 E23.95492
G0 F9000 X197.355 Y129.498
G1 F1800 X194.349 Y133.195 E24.04455
G1 X193.262 Y134.236 E24.07286
G1 X191.381 Y135.191 E24.11254
G1 X189.369 Y135.622 E24.15125
G1 X187.43 Y135.408 E24.18794
G1 X185.808 Y134.825 E24.22036
